; generated by PrusaSlicer 2.5.0+win64 on 2022-11-29 at 10:11:33 UTC


;
;
; 

; external perimeters extrusion width = 0.60mm
; perimeters extrusion width = 0.50mm
; infill extrusion width = 0.50mm
; solid infill extrusion width = 0.50mm
; top infill extrusion width = 0.45mm
; first layer extrusion width = 0.42mm

M73 P0 R205
M73 Q0 S207
M201 X1000 Y1000 Z200 E5000 ; sets maximum accelerations, mm/sec^2
M203 X200 Y200 Z12 E120 ; sets maximum feedrates, mm / sec
M204 P1250 R1250 T1250 ; sets acceleration (P, T) and retract acceleration (R), mm/sec^2
M205 X8.00 Y8.00 Z0.40 E4.50 ; sets the jerk limits, mm/sec
M205 S0 T0 ; sets the minimum extruding and travel feed rate, mm/sec
M107
;TYPE:Custom
M862.3 P "MK3" ; printer model check
M862.1 P0.4 ; nozzle diameter check
M115 U3.11.0 ; tell printer latest fw version
G90 ; use absolute coordinates
M83 ; extruder relative mode
M104 S215 ; set extruder temp
M140 S60 ; set bed temp
M190 S60 ; wait for bed temp
M109 S215 ; wait for extruder temp
G28 W ; home all without mesh bed level
G80 ; mesh bed leveling

G1 Z0.2 F720
G1 Y-3 F1000 ; go outside print area
G92 E0
G1 X60 E9 F1000 ; intro line
G1 X100 E12.5 F1000 ; intro line

G92 E0
M221 S95

; Don't change E values below. Excessive value can damage the printer.

M907 E538 ; set extruder motor current
G21 ; set units to millimeters
G90 ; use absolute coordinates
M83 ; use relative distances for extrusion
M900 K0.05 ; Filament gcode LA 1.5
M900 K30 ; Filament gcode LA 1.0
M107
;LAYER_CHANGE
;Z:0.2
;HEIGHT:0.2
;BEFORE_LAYER_CHANGE
G92 E0.0
;0.2


G1 E-.8 F2100
G1 Z.4 F720
;AFTER_LAYER_CHANGE
;0.2
G1 X82.843 Y60.032 F10800
G1 Z.2 F720
G1 E.8 F2100
M204 S800
;TYPE:Skirt/Brim
;WIDTH:0.42
G1 F1200
G1 X83.889 Y59.155 E.04278
G1 X84.829 Y58.961 E.03008
G1 X165.171 Y58.961 E2.51907
G1 X166.478 Y59.353 E.04278
G1 X167.354 Y60.399 E.04278
G1 X167.548 Y61.339 E.03008
G1 X167.548 Y148.661 E2.73795
G1 X167.157 Y149.968 E.04278
G1 X166.111 Y150.845 E.04278
M73 Q0 S206
G1 X165.171 Y151.039 E.03008
G1 X84.829 Y151.039 E2.51907
G1 X83.522 Y150.647 E.04278
G1 X82.646 Y149.601 E.04278
G1 X82.452 Y148.661 E.03008
G1 X82.452 Y61.339 E2.73795
G1 X82.826 Y60.089 E.0409
M204 S1000
; printing object 1st_try_boombase.STL id:0 copy 0
;WIPE_START
G1 F8640
G1 X83.889 Y59.155 E-.32671
G1 X84.829 Y58.961 E-.22155
G1 X85.746 Y58.961 E-.21174
;WIPE_END
G1 E-.04 F2100
G1 Z.6 F720
G1 X164.384 Y147.874 F10800
G1 Z.2 F720
G1 E.8 F2100
M204 S800
;TYPE:Perimeter
;WIDTH:0.419999
G1 F1200
G1 X85.616 Y147.874 E2.46971
G1 X85.616 Y62.126 E2.68859
G1 X164.384 Y62.126 E2.46971
G1 X164.384 Y147.814 E2.68671
M204 S1000
G1 X164.761 Y148.251 F10800
M204 S800
;TYPE:External perimeter
G1 F1200
G1 X85.239 Y148.251 E2.49335
G1 X85.239 Y61.749 E2.71223
G1 X164.761 Y61.749 E2.49335
G1 X164.761 Y148.191 E2.71035
M204 S1000
M73 P0 R204
G1 X164.376 Y148.143 F10800
;WIPE_START
G1 F8640
G1 X161.47 Y148.194 E-.76
;WIPE_END
G1 E-.04 F2100
G1 Z.6 F720
G1 X140.973 Y88.77 F10800
G1 Z.2 F720
G1 E.8 F2100
M204 S800
;TYPE:Perimeter
G1 F1200
G1 X141.474 Y88.916 E.01635
G1 X141.991 Y89.167 E.01801
G1 X142.457 Y89.502 E.01801
G1 X142.86 Y89.911 E.01801
G1 X143.189 Y90.382 E.01801
G1 X143.433 Y90.902 E.01801
G1 X143.585 Y91.456 E.01801
G1 X143.644 Y92.075 E.01951
G1 X143.601 Y92.6 E.01651
G1 X143.465 Y93.158 E.01801
G1 X143.236 Y93.685 E.01801
G1 X142.921 Y94.165 E.01801
G1 X142.529 Y94.585 E.01801
G1 X142.072 Y94.933 E.01801
G1 X141.563 Y95.199 E.01801
G1 X141.016 Y95.375 E.01801
G1 X140.448 Y95.456 E.01801
G1 X139.874 Y95.44 E.01801
G1 X139.311 Y95.327 E.01801
G1 X138.775 Y95.12 E.01801
G1 X138.281 Y94.826 E.01801
G1 X137.845 Y94.453 E.01801
G1 X137.478 Y94.011 E.01801
G1 X137.191 Y93.514 E.01801
G1 X136.992 Y92.975 E.01801
G1 X136.887 Y92.415 E.01785
G1 X136.879 Y91.843 E.01795
G1 X136.955 Y91.339 E.01596
G1 X137.114 Y90.83 E.01672
G1 X137.357 Y90.338 E.01722
G1 X137.685 Y89.883 E.01758
G1 X138.091 Y89.481 E.0179
G1 X138.566 Y89.149 E.01819
G1 X139.102 Y88.899 E.01853
G1 X139.686 Y88.743 E.01896
G1 X140.309 Y88.692 E.0196
G1 X140.915 Y88.754 E.01911
M204 S1000
G1 X140.935 Y89.147 F10800
M204 S800
;TYPE:External perimeter
G1 F1200
G1 X141.364 Y89.276 E.01403
G1 X141.821 Y89.504 E.01601
G1 X142.233 Y89.805 E.01601
G1 X142.588 Y90.172 E.01601
G1 X142.876 Y90.593 E.01601
G1 X143.089 Y91.057 E.01601
G1 X143.22 Y91.551 E.01601
G1 X143.266 Y92.059 E.01601
G1 X143.224 Y92.584 E.01651
G1 X143.095 Y93.078 E.01601
G1 X142.884 Y93.545 E.01608
G1 X142.601 Y93.964 E.01584
G1 X142.253 Y94.328 E.01578
G1 X141.848 Y94.63 E.01584
G1 X141.393 Y94.862 E.01601
G1 X140.906 Y95.015 E.01601
G1 X140.4 Y95.082 E.01601
G1 X139.89 Y95.063 E.01601
G1 X139.39 Y94.958 E.01601
G1 X138.915 Y94.77 E.01601
G1 X138.479 Y94.505 E.01601
G1 X138.094 Y94.17 E.01601
G1 X137.771 Y93.774 E.01601
G1 X137.52 Y93.33 E.01601
G1 X137.347 Y92.849 E.01601
G1 X137.259 Y92.351 E.01585
G1 X137.256 Y91.843 E.01595
G1 X137.339 Y91.332 E.01621
G1 X137.507 Y90.85 E.01601
G1 X137.753 Y90.403 E.01601
G1 X138.072 Y90.004 E.01601
G1 X138.453 Y89.665 E.01601
G1 X138.887 Y89.395 E.01601
G1 X139.359 Y89.202 E.01601
G1 X139.858 Y89.091 E.01601
G1 X140.368 Y89.067 E.01601
G1 X140.878 Y89.13 E.01611
M204 S1000
G1 X141.204 Y88.851 F10800
;WIPE_START
G1 F8640
G1 X141.364 Y89.276 E-.11717
G1 X141.821 Y89.504 E-.11789
G1 X142.233 Y89.805 E-.11789
G1 X142.588 Y90.172 E-.11789
G1 X142.876 Y90.593 E-.11789
G1 X143.089 Y91.057 E-.11789
G1 X143.149 Y91.281 E-.05337
;WIPE_END
G1 E-.04 F2100
G1 Z.6 F720
G1 X141.878 Y107.996 F10800
G1 Z.2 F720
G1 E.8 F2100
M204 S800
;TYPE:Perimeter
G1 F1200
G1 X141.461 Y108.313 E.01643
G1 X140.952 Y108.579 E.01801
G1 X140.405 Y108.755 E.01801
G1 X139.836 Y108.836 E.01801
G1 X139.262 Y108.82 E.01801
G1 X138.699 Y108.707 E.01801
G1 X138.163 Y108.5 E.01801
G1 X137.67 Y108.206 E.01801
G1 X137.234 Y107.833 E.01801
G1 X136.866 Y107.391 E.01801
G1 X136.579 Y106.894 E.01801
G1 X136.38 Y106.355 E.01801
G1 X136.262 Y105.527 E.02623
G1 X136.349 Y104.703 E.02598
G1 X136.54 Y104.104 E.01969
G1 X136.813 Y103.599 E.01801
G1 X137.167 Y103.147 E.01801
G1 X137.593 Y102.761 E.01801
G1 X138.078 Y102.453 E.01801
G1 X138.607 Y102.232 E.01801
G1 X139.167 Y102.103 E.01801
G1 X139.741 Y102.07 E.01801
G1 X140.311 Y102.135 E.01801
G1 X140.863 Y102.296 E.01801
G1 X141.379 Y102.547 E.01801
G1 X141.846 Y102.882 E.01801
G1 X142.249 Y103.291 E.01801
G1 X142.577 Y103.762 E.01801
G1 X142.821 Y104.282 E.01801
G1 X142.974 Y104.836 E.01801
G1 X143.031 Y105.407 E.01801
G1 X142.99 Y105.98 E.01801
G1 X142.853 Y106.538 E.01801
G1 X142.624 Y107.065 E.01801
G1 X142.309 Y107.545 E.01801
G1 X141.924 Y107.958 E.01771
M204 S1000
G1 X141.521 Y107.798 F10800
M204 S800
;TYPE:External perimeter
G1 F1200
G1 X141.237 Y108.01 E.01111
G1 X140.782 Y108.242 E.01601
G1 X140.295 Y108.394 E.01601
G1 X139.789 Y108.462 E.01601
G1 X139.278 Y108.443 E.01601
G1 X138.779 Y108.338 E.01601
G1 X138.304 Y108.15 E.01601
G1 X137.868 Y107.885 E.01601
G1 X137.483 Y107.55 E.01601
G1 X137.16 Y107.154 E.01601
G1 X136.908 Y106.71 E.01601
G1 X136.736 Y106.229 E.01601
G1 X136.636 Y105.479 E.02373
G1 X136.723 Y104.75 E.02301
G1 X136.895 Y104.23 E.01718
G1 X137.142 Y103.783 E.01601
G1 X137.461 Y103.384 E.01601
G1 X137.842 Y103.045 E.01601
G1 X138.275 Y102.775 E.01601
G1 X138.748 Y102.582 E.01601
G1 X139.247 Y102.471 E.01601
G1 X139.757 Y102.447 E.01601
G1 X140.263 Y102.509 E.01601
G1 X140.752 Y102.656 E.01601
G1 X141.209 Y102.884 E.01601
G1 X141.622 Y103.185 E.01601
G1 X141.977 Y103.552 E.01601
G1 X142.265 Y103.973 E.01601
G1 X142.478 Y104.437 E.01601
G1 X142.609 Y104.931 E.01601
G1 X142.655 Y105.439 E.01601
G1 X142.614 Y105.948 E.01601
G1 X142.488 Y106.443 E.01601
G1 X142.281 Y106.909 E.01601
G1 X141.997 Y107.334 E.01601
G1 X141.646 Y107.704 E.01601
G1 X141.569 Y107.762 E.00302
M204 S1000
G1 X141.578 Y108.148 F10800
;WIPE_START
G1 F8640
G1 X141.237 Y108.01 E-.09569
G1 X140.782 Y108.242 E-.11789
G1 X140.295 Y108.394 E-.11789
G1 X139.789 Y108.462 E-.11789
G1 X139.278 Y108.443 E-.11789
G1 X138.779 Y108.338 E-.11789
G1 X138.477 Y108.219 E-.07485
;WIPE_END
G1 E-.04 F2100
G1 Z.6 F720
G1 X133.083 Y115.064 F10800
G1 Z.2 F720
G1 E.8 F2100
M204 S800
;TYPE:Perimeter
G1 F1200
G1 X132.928 Y115.657 E.01921
G1 X132.718 Y116.12 E.01593
G1 X132.416 Y116.574 E.0171
G1 X132.024 Y116.994 E.01801
G1 X131.568 Y117.342 E.01801
G1 X131.058 Y117.608 E.01801
G1 X130.512 Y117.784 E.01801
G1 X129.943 Y117.865 E.01801
G1 X129.369 Y117.849 E.01801
G1 X128.806 Y117.736 E.01801
G1 X128.27 Y117.529 E.01801
G1 X127.777 Y117.235 E.01801
G1 X127.34 Y116.861 E.01801
G1 X126.973 Y116.42 E.01801
G1 X126.686 Y115.922 E.01801
G1 X126.487 Y115.384 E.01801
G1 X126.383 Y114.824 E.01785
G1 X126.375 Y114.24 E.01831
G1 X126.463 Y113.677 E.01785
G1 X126.646 Y113.133 E.01801
G1 X126.919 Y112.628 E.01801
G1 X127.274 Y112.176 E.01801
G1 X127.7 Y111.79 E.01801
G1 X128.184 Y111.482 E.01801
G1 X128.714 Y111.261 E.01801
G1 X129.274 Y111.132 E.01801
G1 X129.847 Y111.099 E.01801
G1 X130.418 Y111.164 E.01801
G1 X130.969 Y111.324 E.01801
G1 X131.486 Y111.576 E.01801
G1 X131.952 Y111.911 E.01801
G1 X132.356 Y112.32 E.01801
G1 X132.684 Y112.791 E.01801
G1 X132.928 Y113.311 E.01801
G1 X133.081 Y113.864 E.01801
G1 X133.137 Y114.436 E.01801
G1 X133.097 Y115.006 E.01792
M204 S1000
G1 X132.725 Y114.926 F10800
M204 S800
;TYPE:External perimeter
G1 F1200
G1 X132.595 Y115.472 E.0176
G1 X132.377 Y115.958 E.01671
G1 X132.094 Y116.375 E.01579
G1 X131.747 Y116.739 E.01578
G1 X131.343 Y117.039 E.01577
G1 X130.889 Y117.271 E.01601
G1 X130.401 Y117.423 E.01601
G1 X129.895 Y117.491 E.01601
G1 X129.385 Y117.472 E.01601
G1 X128.885 Y117.367 E.01601
G1 X128.411 Y117.179 E.01601
G1 X127.974 Y116.914 E.01601
G1 X127.589 Y116.578 E.01601
G1 X127.266 Y116.183 E.01601
G1 X127.015 Y115.738 E.01601
G1 X126.842 Y115.258 E.01601
G1 X126.754 Y114.76 E.01586
G1 X126.752 Y114.24 E.01631
G1 X126.834 Y113.741 E.01586
G1 X127.002 Y113.259 E.01601
G1 X127.249 Y112.812 E.01601
G1 X127.567 Y112.413 E.01601
G1 X127.949 Y112.073 E.01601
G1 X128.382 Y111.803 E.01601
G1 X128.855 Y111.61 E.01601
G1 X129.353 Y111.5 E.01601
G1 X129.863 Y111.476 E.01601
G1 X130.37 Y111.538 E.01601
G1 X130.859 Y111.685 E.01601
G1 X131.316 Y111.912 E.01601
G1 X131.728 Y112.214 E.01601
G1 X132.083 Y112.58 E.01601
G1 X132.372 Y113.002 E.01601
G1 X132.584 Y113.466 E.01601
G1 X132.716 Y113.959 E.01601
G1 X132.762 Y114.468 E.01601
G1 X132.73 Y114.866 E.01252
M204 S1000
G1 X133.037 Y115.176 F10800
;WIPE_START
G1 F8640
G1 X132.595 Y115.472 E-.14331
G1 X132.377 Y115.958 E-.12303
G1 X132.094 Y116.375 E-.11631
G1 X131.747 Y116.739 E-.11618
G1 X131.343 Y117.039 E-.11611
G1 X130.889 Y117.271 E-.11789
G1 X130.776 Y117.306 E-.02716
;WIPE_END
G1 E-.04 F2100
G1 Z.6 F720
G1 X119.002 Y115.999 F10800
G1 Z.2 F720
G1 E.8 F2100
M204 S800
;TYPE:Perimeter
G1 F1200
G1 X118.645 Y116.383 E.01643
G1 X118.188 Y116.731 E.01801
G1 X117.678 Y116.997 E.01801
G1 X117.132 Y117.172 E.01801
G1 X116.563 Y117.253 E.01801
G1 X115.989 Y117.237 E.01801
G1 X115.426 Y117.124 E.01801
G1 X114.89 Y116.918 E.01801
G1 X114.397 Y116.623 E.01801
G1 X113.96 Y116.25 E.01801
G1 X113.593 Y115.808 E.01801
G1 X113.306 Y115.311 E.01801
G1 X113.107 Y114.772 E.01801
G1 X112.985 Y113.853 E.02908
G1 X113.079 Y113.09 E.0241
G1 X113.266 Y112.522 E.01877
G1 X113.539 Y112.016 E.01801
G1 X113.894 Y111.564 E.01801
G1 X114.32 Y111.179 E.01801
G1 X114.804 Y110.871 E.01801
G1 X115.334 Y110.649 E.01801
G1 X115.894 Y110.52 E.01801
G1 X116.425 Y110.49 E.01667
G1 X117.038 Y110.553 E.01934
G1 X117.589 Y110.713 E.01801
G1 X118.106 Y110.964 E.01801
G1 X118.573 Y111.299 E.01801
G1 X118.976 Y111.708 E.01801
G1 X119.304 Y112.179 E.01801
G1 X119.548 Y112.699 E.01801
G1 X119.701 Y113.253 E.01801
G1 X119.757 Y113.825 E.01801
G1 X119.717 Y114.398 E.01801
G1 X119.58 Y114.955 E.01801
G1 X119.351 Y115.482 E.01801
G1 X119.041 Y115.954 E.01771
M204 S1000
G1 X118.607 Y115.874 F10800
M204 S800
;TYPE:External perimeter
G1 F1200
G1 X118.372 Y116.122 E.01069
G1 X117.963 Y116.428 E.01601
G1 X117.509 Y116.66 E.01601
G1 X117.021 Y116.812 E.01601
G1 X116.515 Y116.879 E.01601
G1 X116.005 Y116.86 E.01601
G1 X115.505 Y116.756 E.01601
G1 X115.031 Y116.568 E.01601
G1 X114.594 Y116.302 E.01601
G1 X114.209 Y115.967 E.01601
G1 X113.886 Y115.572 E.01601
G1 X113.635 Y115.127 E.01601
G1 X113.462 Y114.647 E.01601
G1 X113.361 Y113.866 E.02468
G1 X113.453 Y113.138 E.02302
G1 X113.622 Y112.647 E.01626
G1 X113.869 Y112.2 E.01601
G1 X114.187 Y111.801 E.01601
G1 X114.569 Y111.462 E.01601
G1 X115.002 Y111.192 E.01601
G1 X115.475 Y110.999 E.01601
G1 X115.973 Y110.889 E.01601
G1 X116.483 Y110.864 E.01601
G1 X116.99 Y110.927 E.01601
G1 X117.479 Y111.074 E.01601
G1 X117.936 Y111.301 E.01601
G1 X118.348 Y111.602 E.01601
G1 X118.704 Y111.969 E.01601
G1 X118.992 Y112.391 E.01601
G1 X119.204 Y112.855 E.01601
G1 X119.336 Y113.348 E.01601
G1 X119.382 Y113.857 E.01601
G1 X119.341 Y114.366 E.01601
G1 X119.215 Y114.86 E.01601
G1 X119.007 Y115.327 E.01601
G1 X118.724 Y115.751 E.01601
G1 X118.648 Y115.831 E.00343
M204 S1000
G1 X118.718 Y116.197 F10800
;WIPE_START
G1 F8640
G1 X118.372 Y116.122 E-.09262
G1 X117.963 Y116.428 E-.11789
G1 X117.509 Y116.66 E-.11789
G1 X117.021 Y116.812 E-.11789
G1 X116.515 Y116.879 E-.1179
G1 X116.005 Y116.86 E-.11789
G1 X115.675 Y116.791 E-.07792
;WIPE_END
G1 E-.04 F2100
G1 Z.6 F720
G1 X107.495 Y100.601 F10800
G1 Z.2 F720
G1 E.8 F2100
M204 S800
;TYPE:Perimeter
G1 F1200
G1 X108.009 Y100.659 E.01622
G1 X108.561 Y100.82 E.01801
G1 X109.077 Y101.071 E.01801
G1 X109.544 Y101.406 E.01801
G1 X109.947 Y101.815 E.01801
G1 X110.275 Y102.286 E.01801
G1 X110.519 Y102.806 E.01801
G1 X110.672 Y103.36 E.01801
G1 X110.729 Y103.931 E.01801
G1 X110.692 Y104.462 E.01667
G1 X110.575 Y104.971 E.01638
G1 X110.374 Y105.474 E.01699
G1 X110.088 Y105.95 E.01742
G1 X109.72 Y106.38 E.01774
G1 X109.279 Y106.749 E.01804
G1 X108.772 Y107.042 E.01836
G1 X108.21 Y107.246 E.01873
G1 X107.534 Y107.36 E.02149
G1 X106.96 Y107.344 E.01801
G1 X106.397 Y107.231 E.01801
G1 X105.834 Y107.012 E.01895
G1 X105.368 Y106.73 E.01708
G1 X104.931 Y106.357 E.01801
G1 X104.564 Y105.915 E.01801
G1 X104.277 Y105.418 E.01801
G1 X104.078 Y104.879 E.01801
G1 X103.974 Y104.319 E.01785
G1 X103.966 Y103.735 E.01831
G1 X104.054 Y103.173 E.01785
G1 X104.238 Y102.628 E.01801
G1 X104.511 Y102.123 E.01801
G1 X104.865 Y101.671 E.01801
G1 X105.291 Y101.286 E.01801
G1 X105.776 Y100.978 E.01801
G1 X106.305 Y100.756 E.01801
G1 X106.865 Y100.627 E.01801
G1 X107.436 Y100.595 E.01791
M204 S1000
G1 X107.476 Y100.974 F10800
M204 S800
;TYPE:External perimeter
G1 F1200
G1 X107.961 Y101.033 E.01533
G1 X108.45 Y101.18 E.01601
G1 X108.907 Y101.408 E.01601
G1 X109.32 Y101.709 E.01601
G1 X109.675 Y102.076 E.01601
G1 X109.963 Y102.497 E.01601
G1 X110.176 Y102.961 E.01601
G1 X110.307 Y103.455 E.01601
G1 X110.353 Y103.963 E.01601
G1 X110.312 Y104.472 E.01601
G1 X110.186 Y104.967 E.01601
G1 X109.978 Y105.433 E.01601
G1 X109.695 Y105.858 E.01601
G1 X109.344 Y106.228 E.01601
G1 X108.935 Y106.534 E.01601
G1 X108.48 Y106.766 E.01601
G1 X107.993 Y106.919 E.01601
G1 X107.486 Y106.986 E.01601
G1 X106.976 Y106.967 E.01601
G1 X106.477 Y106.862 E.01601
G1 X105.993 Y106.67 E.01632
G1 X105.566 Y106.409 E.0157
G1 X105.181 Y106.074 E.01601
G1 X104.858 Y105.678 E.01601
G1 X104.606 Y105.234 E.01601
G1 X104.434 Y104.753 E.01601
G1 X104.346 Y104.255 E.01585
G1 X104.343 Y103.735 E.01631
G1 X104.426 Y103.236 E.01585
G1 X104.593 Y102.754 E.01601
G1 X104.84 Y102.307 E.01601
G1 X105.158 Y101.908 E.01601
G1 X105.54 Y101.569 E.01601
G1 X105.973 Y101.299 E.01601
G1 X106.446 Y101.106 E.01601
G1 X106.945 Y100.996 E.01601
G1 X107.416 Y100.973 E.0148
M204 S1000
G1 X107.689 Y100.635 F10800
;WIPE_START
G1 F8640
G1 X107.961 Y101.033 E-.12664
G1 X108.45 Y101.18 E-.11789
G1 X108.907 Y101.408 E-.11789
G1 X109.32 Y101.709 E-.1179
G1 X109.675 Y102.076 E-.11789
G1 X109.963 Y102.497 E-.11789
G1 X110.042 Y102.67 E-.0439
;WIPE_END
G1 E-.04 F2100
G1 Z.6 F720
G1 X104.579 Y90.597 F10800
G1 Z.2 F720
G1 E.8 F2100
M204 S800
;TYPE:Perimeter
G1 F1200
G1 X104.662 Y89.817 E.02459
G1 X104.849 Y89.248 E.01877
G1 X105.122 Y88.743 E.01801
