; generated by PrusaSlicer 2.5.0+win64 on 2022-11-30 at 09:35:05 UTC


;
;
; 

; external perimeters extrusion width = 0.60mm
; perimeters extrusion width = 0.50mm
; infill extrusion width = 0.50mm
; solid infill extrusion width = 0.50mm
; top infill extrusion width = 0.45mm
; first layer extrusion width = 0.42mm

M73 P0 R168
M73 Q0 S170
M201 X1000 Y1000 Z200 E5000 ; sets maximum accelerations, mm/sec^2
M203 X200 Y200 Z12 E120 ; sets maximum feedrates, mm / sec
M204 P1250 R1250 T1250 ; sets acceleration (P, T) and retract acceleration (R), mm/sec^2
M205 X8.00 Y8.00 Z0.40 E4.50 ; sets the jerk limits, mm/sec
M205 S0 T0 ; sets the minimum extruding and travel feed rate, mm/sec
M107
;TYPE:Custom
M862.3 P "MK3" ; printer model check
M862.1 P0.4 ; nozzle diameter check
M115 U3.11.0 ; tell printer latest fw version
G90 ; use absolute coordinates
M83 ; extruder relative mode
M104 S215 ; set extruder temp
M140 S60 ; set bed temp
M190 S60 ; wait for bed temp
M109 S215 ; wait for extruder temp
G28 W ; home all without mesh bed level
G80 ; mesh bed leveling

G1 Z0.2 F720
G1 Y-3 F1000 ; go outside print area
G92 E0
G1 X60 E9 F1000 ; intro line
G1 X100 E12.5 F1000 ; intro line

G92 E0
M221 S95

; Don't change E values below. Excessive value can damage the printer.

M907 E538 ; set extruder motor current
G21 ; set units to millimeters
G90 ; use absolute coordinates
M83 ; use relative distances for extrusion
M900 K0.05 ; Filament gcode LA 1.5
M900 K30 ; Filament gcode LA 1.0
M107
;LAYER_CHANGE
;Z:0.2
;HEIGHT:0.2
;BEFORE_LAYER_CHANGE
G92 E0.0
;0.2


G1 E-.8 F2100
G1 Z.4 F720
;AFTER_LAYER_CHANGE
;0.2
G1 X94.333 Y76.022 F10800
G1 Z.2 F720
G1 E.8 F2100
M204 S800
;TYPE:Skirt/Brim
;WIDTH:0.42
G1 F1200
G1 X95.379 Y75.146 E.04278
G1 X96.319 Y74.952 E.03008
G1 X128.851 Y74.958 E1.02003
G1 X132.409 Y75.212 E.11184
G1 X136.23 Y76.019 E.12245
G1 X139.898 Y77.361 E.12245
G1 X143.337 Y79.211 E.12245
G1 X146.478 Y81.532 E.12245
G1 X149.256 Y84.277 E.12244
G1 X151.616 Y87.388 E.12245
G1 X153.508 Y90.804 E.12245
G1 X154.896 Y94.455 E.12245
G1 X155.75 Y98.266 E.12245
G1 X156.058 Y102.329 E.12776
G1 X156.052 Y107.841 E.17281
G1 X155.798 Y111.399 E.11184
G1 X154.991 Y115.22 E.12245
G1 X153.649 Y118.887 E.12245
G1 X151.799 Y122.326 E.12245
G1 X149.256 Y125.723 E.13305
G1 X146.734 Y128.246 E.11184
G1 X143.622 Y130.605 E.12245
G1 X139.897 Y132.639 E.13305
G1 X136.555 Y133.886 E.11184
G1 X132.745 Y134.739 E.12245
G1 X128.681 Y135.048 E.12776
G1 X96.319 Y135.048 E1.01471
G1 X95.012 Y134.657 E.04278
G1 X94.135 Y133.611 E.04278
G1 X93.942 Y132.671 E.03008
G1 X93.942 Y77.329 E1.73521
G1 X94.316 Y76.079 E.0409
M204 S1000
; printing object 2nd_try_boombase.STL id:0 copy 0
;WIPE_START
G1 F8640
G1 X95.379 Y75.146 E-.32671
G1 X96.319 Y74.952 E-.22155
G1 X97.236 Y74.952 E-.21174
;WIPE_END
G1 E-.04 F2100
G1 Z.6 F720
G1 X143.176 Y101.185 F10800
G1 Z.2 F720
G1 E.8 F2100
M204 S800
;TYPE:Perimeter
;WIDTH:0.419999
G1 F1200
G1 X142.693 Y101.233 E.01522
G1 X142.12 Y101.193 E.01801
G1 X141.562 Y101.056 E.01801
G1 X141.036 Y100.827 E.01801
G1 X140.555 Y100.512 E.01801
G1 X140.135 Y100.12 E.01801
G1 X139.787 Y99.664 E.01801
G1 X139.521 Y99.154 E.01801
G1 X139.345 Y98.608 E.01801
G1 X139.264 Y98.039 E.01801
G1 X139.28 Y97.465 E.01801
G1 X139.393 Y96.902 E.01801
G1 X139.6 Y96.366 E.01801
G1 X139.894 Y95.873 E.01801
G1 X140.267 Y95.436 E.01801
G1 X140.709 Y95.069 E.01801
G1 X141.207 Y94.782 E.01801
G1 X141.745 Y94.583 E.01801
G1 X142.305 Y94.479 E.01785
G1 X142.934 Y94.472 E.0197
G1 X143.452 Y94.559 E.01647
G1 X143.996 Y94.742 E.01801
G1 X144.501 Y95.015 E.01801
G1 X144.953 Y95.37 E.01801
G1 X145.312 Y95.765 E.01674
G1 X145.647 Y96.28 E.01927
G1 X145.868 Y96.81 E.01801
G1 X145.997 Y97.37 E.01801
G1 X146.03 Y97.943 E.01801
G1 X145.965 Y98.514 E.01801
G1 X145.805 Y99.065 E.01801
G1 X145.553 Y99.582 E.01801
G1 X145.26 Y99.992 E.0158
G1 X144.809 Y100.452 E.02019
G1 X144.338 Y100.78 E.01801
G1 X143.818 Y101.024 E.01801
G1 X143.236 Y101.179 E.01891
M204 S1000
G1 X143.138 Y100.817 F10800
M204 S800
;TYPE:External perimeter
G1 F1200
G1 X142.629 Y100.858 E.01601
G1 X142.12 Y100.812 E.01601
G1 X141.627 Y100.68 E.01601
G1 X141.163 Y100.468 E.01601
G1 X140.741 Y100.179 E.01601
G1 X140.375 Y99.824 E.01601
G1 X140.076 Y99.418 E.01581
G1 X139.85 Y98.967 E.01581
G1 X139.703 Y98.487 E.01574
G1 X139.638 Y97.991 E.01569
G1 X139.657 Y97.481 E.01601
G1 X139.762 Y96.981 E.01601
G1 X139.95 Y96.506 E.01601
G1 X140.215 Y96.07 E.01601
G1 X140.551 Y95.685 E.01601
G1 X140.946 Y95.362 E.01601
G1 X141.39 Y95.111 E.01601
G1 X141.871 Y94.938 E.01601
G1 X142.369 Y94.85 E.01585
G1 X142.904 Y94.848 E.01678
G1 X143.419 Y94.938 E.01639
G1 X143.892 Y95.107 E.01576
G1 X144.344 Y95.362 E.01626
G1 X144.739 Y95.685 E.01601
G1 X145.075 Y96.07 E.01601
G1 X145.34 Y96.506 E.01601
G1 X145.528 Y96.981 E.01601
G1 X145.633 Y97.481 E.01601
G1 X145.652 Y97.991 E.01601
G1 X145.584 Y98.497 E.01601
G1 X145.432 Y98.985 E.01601
G1 X145.2 Y99.439 E.01601
G1 X144.894 Y99.848 E.01601
G1 X144.525 Y100.198 E.01594
G1 X144.099 Y100.483 E.01607
G1 X143.633 Y100.691 E.01601
G1 X143.196 Y100.802 E.01413
M204 S1000
G1 X142.997 Y101.192 F10800
;WIPE_START
G1 F8640
G1 X142.629 Y100.858 E-.13157
G1 X142.12 Y100.812 E-.11789
G1 X141.627 Y100.68 E-.11789
G1 X141.163 Y100.468 E-.11789
G1 X140.741 Y100.179 E-.1179
G1 X140.375 Y99.824 E-.11789
G1 X140.275 Y99.688 E-.03897
;WIPE_END
G1 E-.04 F2100
G1 Z.6 F720
G1 X97.106 Y131.884 F10800
G1 Z.2 F720
G1 E.8 F2100
M204 S800
;TYPE:Perimeter
G1 F1200
G1 X97.106 Y78.116 E1.68585
G1 X128.653 Y78.116 E.98915
G1 X132.127 Y78.364 E.10919
G1 X135.502 Y79.099 E.10831
G1 X138.739 Y80.306 E.10831
G1 X141.771 Y81.961 E.10831
G1 X144.536 Y84.032 E.10831
G1 X146.979 Y86.474 E.10831
G1 X149.049 Y89.24 E.10831
G1 X150.704 Y92.271 E.10831
G1 X151.912 Y95.508 E.10831
G1 X152.646 Y98.883 E.10831
G1 X152.894 Y102.508 E.11392
G1 X152.894 Y107.643 E.16099
G1 X152.646 Y111.117 E.10919
G1 X151.912 Y114.492 E.10831
G1 X150.704 Y117.729 E.10831
G1 X149.049 Y120.76 E.10831
G1 X146.979 Y123.526 E.10831
G1 X144.536 Y125.968 E.10831
G1 X141.771 Y128.039 E.10831
G1 X138.739 Y129.694 E.10831
G1 X135.502 Y130.901 E.10831
G1 X132.127 Y131.635 E.10831
G1 X128.653 Y131.884 E.10919
G1 X97.166 Y131.884 E.98727
M204 S1000
G1 X96.729 Y132.261 F10800
M204 S800
;TYPE:External perimeter
G1 F1200
G1 X96.729 Y77.739 E1.7095
G1 X128.667 Y77.739 E1.00139
G1 X132.181 Y77.99 E.11046
G1 X135.609 Y78.736 E.11
G1 X138.896 Y79.962 E.11
G1 X141.975 Y81.643 E.11
G1 X144.784 Y83.746 E.11
G1 X147.264 Y86.227 E.11
G1 X149.367 Y89.035 E.11
G1 X151.048 Y92.114 E.11
G1 X152.274 Y95.401 E.11
G1 X153.02 Y98.83 E.11
G1 X153.271 Y102.508 E.11561
G1 X153.271 Y107.656 E.16142
G1 X153.02 Y111.17 E.11046
G1 X152.274 Y114.599 E.11
G1 X151.048 Y117.886 E.11
G1 X149.367 Y120.965 E.11
G1 X147.264 Y123.773 E.11
G1 X144.784 Y126.254 E.11
G1 X141.975 Y128.357 E.11
G1 X138.896 Y130.038 E.11
G1 X135.609 Y131.264 E.11
G1 X132.181 Y132.01 E.11
G1 X128.667 Y132.261 E.11046
G1 X96.789 Y132.261 E.99951
M204 S1000
G1 X96.928 Y131.914 F10800
;WIPE_START
G1 F8640
G1 X96.785 Y128.97 E-.76
;WIPE_END
G1 E-.04 F2100
G1 Z.6 F720
G1 X142.596 Y114.562 F10800
G1 Z.2 F720
G1 E.8 F2100
M204 S800
;TYPE:Perimeter
G1 F1200
G1 X142.082 Y114.613 E.01622
G1 X141.551 Y114.576 E.01666
G1 X141.042 Y114.46 E.01638
G1 X140.539 Y114.259 E.01699
G1 X140.063 Y113.973 E.01741
G1 X139.633 Y113.605 E.01775
G1 X139.264 Y113.163 E.01804
G1 X138.971 Y112.656 E.01836
G1 X138.767 Y112.095 E.01873
G1 X138.662 Y111.49 E.01924
G1 X138.669 Y110.845 E.02023
G1 X138.782 Y110.282 E.01801
G1 X138.989 Y109.746 E.01801
G1 X139.283 Y109.253 E.01801
G1 X139.656 Y108.816 E.01801
G1 X140.098 Y108.449 E.01801
G1 X140.595 Y108.162 E.01801
G1 X141.134 Y107.963 E.01801
G1 X141.694 Y107.859 E.01785
G1 X142.278 Y107.85 E.01831
G1 X142.84 Y107.939 E.01785
G1 X143.385 Y108.122 E.01801
G1 X143.89 Y108.395 E.01801
M73 Q0 S169
G1 X144.342 Y108.75 E.01801
G1 X144.727 Y109.175 E.01801
G1 X145.035 Y109.66 E.01801
G1 X145.257 Y110.19 E.01801
G1 X145.386 Y110.75 E.01801
G1 X145.418 Y111.323 E.01801
G1 X145.354 Y111.894 E.01801
G1 X145.193 Y112.445 E.01801
G1 X144.942 Y112.962 E.01801
G1 X144.607 Y113.428 E.01801
G1 X144.198 Y113.832 E.01801
G1 X143.727 Y114.16 E.01801
G1 X143.207 Y114.404 E.01801
G1 X142.656 Y114.556 E.01791
M204 S1000
G1 X142.558 Y114.192 F10800
M204 S800
;TYPE:External perimeter
G1 F1200
G1 X142.05 Y114.238 E.01601
G1 X141.541 Y114.197 E.01601
G1 X141.046 Y114.071 E.01601
G1 X140.579 Y113.863 E.01601
G1 X140.155 Y113.579 E.01601
G1 X139.784 Y113.228 E.01601
G1 X139.479 Y112.819 E.01601
G1 X139.246 Y112.365 E.01601
G1 X139.094 Y111.877 E.01601
G1 X139.027 Y111.371 E.01601
G1 X139.046 Y110.861 E.01601
G1 X139.151 Y110.361 E.01601
G1 X139.339 Y109.886 E.01601
G1 X139.604 Y109.45 E.01601
G1 X139.939 Y109.065 E.01601
G1 X140.335 Y108.742 E.01601
G1 X140.779 Y108.491 E.01601
G1 X141.26 Y108.318 E.01601
G1 X141.758 Y108.23 E.01586
G1 X142.278 Y108.227 E.01631
G1 X142.777 Y108.31 E.01585
G1 X143.259 Y108.478 E.01601
G1 X143.706 Y108.724 E.01601
G1 X144.105 Y109.043 E.01601
G1 X144.444 Y109.425 E.01601
G1 X144.714 Y109.858 E.01601
G1 X144.907 Y110.331 E.01601
G1 X145.017 Y110.829 E.01601
G1 X145.042 Y111.339 E.01601
G1 X144.98 Y111.846 E.01601
G1 X144.833 Y112.335 E.01601
G1 X144.605 Y112.792 E.01601
G1 X144.304 Y113.204 E.01601
G1 X143.937 Y113.559 E.01601
G1 X143.516 Y113.848 E.01601
G1 X143.051 Y114.06 E.01601
G1 X142.616 Y114.176 E.01413
M204 S1000
G1 X142.421 Y114.568 F10800
;WIPE_START
G1 F8640
G1 X142.05 Y114.238 E-.13157
G1 X141.541 Y114.197 E-.11789
G1 X141.046 Y114.071 E-.11789
G1 X140.579 Y113.863 E-.11789
G1 X140.155 Y113.579 E-.11789
G1 X139.784 Y113.228 E-.11789
G1 X139.683 Y113.093 E-.03897
;WIPE_END
G1 E-.04 F2100
G1 Z.6 F720
G1 X134.843 Y118.246 F10800
G1 Z.2 F720
G1 E.8 F2100
M204 S800
;TYPE:Perimeter
G1 F1200
G1 X135.067 Y118.566 E.01224
G1 X135.317 Y119.102 E.01853
G1 X135.473 Y119.686 E.01896
G1 X135.523 Y120.309 E.0196
G1 X135.46 Y120.923 E.01934
G1 X135.3 Y121.474 E.01801
G1 X135.053 Y121.982 E.01772
G1 X134.714 Y122.457 E.0183
G1 X134.305 Y122.86 E.01801
G1 X133.833 Y123.189 E.01801
G1 X133.313 Y123.433 E.01801
G1 X132.76 Y123.585 E.01801
G1 X132.188 Y123.642 E.01801
G1 X131.615 Y123.601 E.01801
G1 X131.058 Y123.465 E.01801
G1 X130.531 Y123.236 E.01801
G1 X130.05 Y122.921 E.01801
G1 X129.63 Y122.529 E.01801
G1 X129.282 Y122.072 E.01801
G1 X129.006 Y121.541 E.01879
G1 X128.84 Y121.016 E.01724
G1 X128.759 Y120.448 E.01801
G1 X128.776 Y119.874 E.01801
G1 X128.889 Y119.311 E.01801
G1 X129.095 Y118.775 E.01801
G1 X129.389 Y118.281 E.01801
G1 X129.763 Y117.845 E.01801
G1 X130.204 Y117.478 E.01801
G1 X130.702 Y117.191 E.01801
G1 X131.241 Y116.992 E.01801
G1 X131.8 Y116.887 E.01785
G1 X132.373 Y116.879 E.01795
G1 X132.876 Y116.955 E.01596
G1 X133.385 Y117.114 E.01672
G1 X133.877 Y117.357 E.01722
G1 X134.333 Y117.685 E.01758
G1 X134.734 Y118.091 E.0179
G1 X134.809 Y118.197 E.00407
M204 S1000
G1 X134.525 Y118.424 F10800
M204 S800
;TYPE:External perimeter
G1 F1200
G1 X134.821 Y118.887 E.01723
G1 X135.014 Y119.359 E.01601
G1 X135.124 Y119.858 E.01601
G1 X135.148 Y120.368 E.01601
G1 X135.086 Y120.875 E.01601
G1 X134.939 Y121.364 E.01601
G1 X134.716 Y121.812 E.01572
G1 X134.41 Y122.233 E.0163
G1 X134.044 Y122.588 E.01601
G1 X133.622 Y122.876 E.01601
G1 X133.158 Y123.089 E.01601
G1 X132.665 Y123.22 E.01601
G1 X132.156 Y123.266 E.01601
G1 X131.647 Y123.226 E.01601
G1 X131.153 Y123.1 E.01601
G1 X130.686 Y122.892 E.01601
G1 X130.262 Y122.608 E.01601
G1 X129.891 Y122.257 E.01601
G1 X129.585 Y121.848 E.01601
G1 X129.342 Y121.367 E.01689
G1 X129.195 Y120.877 E.01604
G1 X129.132 Y120.37 E.01602
G1 X129.156 Y119.86 E.016
G1 X129.266 Y119.362 E.01599
G1 X129.457 Y118.89 E.01597
G1 X129.726 Y118.458 E.01596
G1 X130.063 Y118.077 E.01596
G1 X130.46 Y117.758 E.01596
G1 X130.898 Y117.514 E.01573
G1 X131.37 Y117.346 E.01573
G1 X131.864 Y117.259 E.01572
G1 X132.373 Y117.256 E.01595
G1 X132.883 Y117.339 E.01621
G1 X133.366 Y117.507 E.01601
G1 X133.813 Y117.753 E.01601
G1 X134.212 Y118.072 E.01601
G1 X134.485 Y118.379 E.01289
M204 S1000
M73 P0 R167
G1 X134.921 Y118.373 F10800
;WIPE_START
G1 F8640
G1 X134.821 Y118.887 E-.14059
G1 X135.014 Y119.359 E-.11789
G1 X135.124 Y119.858 E-.11789
G1 X135.148 Y120.368 E-.11789
G1 X135.086 Y120.875 E-.1179
G1 X134.939 Y121.364 E-.11789
G1 X134.882 Y121.48 E-.02995
;WIPE_END
G1 E-.04 F2100
G1 Z.6 F720
G1 X117.917 Y116.37 F10800
G1 Z.2 F720
G1 E.8 F2100
M204 S800
;TYPE:Perimeter
G1 F1200
G1 X118.425 Y116.275 E.01622
G1 X119 Y116.267 E.01801
G1 X119.567 Y116.356 E.01801
G1 X120.111 Y116.54 E.01801
G1 X120.617 Y116.813 E.01801
G1 X121.069 Y117.167 E.01801
G1 X121.454 Y117.593 E.01801
G1 X121.762 Y118.078 E.01801
G1 X121.984 Y118.607 E.01801
G1 X122.113 Y119.167 E.01801
G1 X122.145 Y119.741 E.01801
G1 X122.08 Y120.311 E.01801
G1 X121.92 Y120.863 E.01801
G1 X121.669 Y121.379 E.01801
G1 X121.334 Y121.846 E.01801
G1 X120.925 Y122.249 E.01801
G1 X120.453 Y122.577 E.01801
G1 X119.934 Y122.821 E.01801
G1 X119.38 Y122.974 E.01801
G1 X118.808 Y123.031 E.01801
G1 X118.235 Y122.99 E.01801
G1 X117.678 Y122.853 E.01801
G1 X117.151 Y122.624 E.01801
G1 X116.671 Y122.309 E.01801
G1 X116.25 Y121.918 E.01801
G1 X115.902 Y121.461 E.01801
G1 X115.636 Y120.952 E.01801
G1 X115.46 Y120.405 E.01801
G1 X115.379 Y119.836 E.01801
G1 X115.396 Y119.262 E.01801
G1 X115.509 Y118.699 E.01801
G1 X115.715 Y118.163 E.01801
G1 X116.009 Y117.67 E.01801
G1 X116.383 Y117.234 E.01801
G1 X116.825 Y116.866 E.01801
G1 X117.322 Y116.579 E.01801
G1 X117.858 Y116.381 E.01791
M204 S1000
G1 X117.986 Y116.736 F10800
M204 S800
;TYPE:External perimeter
G1 F1200
G1 X118.489 Y116.647 E.01601
G1 X119 Y116.644 E.01601
G1 X119.503 Y116.728 E.01601
G1 X119.986 Y116.895 E.01601
G1 X120.433 Y117.142 E.01601
G1 X120.832 Y117.461 E.01601
G1 X121.171 Y117.842 E.01601
G1 X121.441 Y118.275 E.01601
G1 X121.634 Y118.748 E.01601
G1 X121.744 Y119.247 E.01601
G1 X121.768 Y119.757 E.01601
G1 X121.706 Y120.263 E.01601
G1 X121.559 Y120.752 E.01601
G1 X121.332 Y121.209 E.01601
G1 X121.031 Y121.622 E.01601
G1 X120.664 Y121.977 E.01601
G1 X120.242 Y122.265 E.01601
G1 X119.778 Y122.478 E.01601
G1 X119.285 Y122.609 E.01601
G1 X118.776 Y122.655 E.01601
G1 X118.267 Y122.614 E.01601
G1 X117.773 Y122.488 E.01601
G1 X117.306 Y122.281 E.01601
G1 X116.882 Y121.997 E.01601
G1 X116.511 Y121.646 E.01601
G1 X116.205 Y121.237 E.01601
G1 X115.973 Y120.782 E.01601
G1 X115.821 Y120.295 E.01601
G1 X115.753 Y119.789 E.01601
G1 X115.772 Y119.278 E.01601
G1 X115.877 Y118.779 E.01601
G1 X116.065 Y118.304 E.01601
G1 X116.331 Y117.868 E.01601
G1 X116.666 Y117.483 E.01601
G1 X117.061 Y117.16 E.01601
G1 X117.506 Y116.908 E.01601
G1 X117.93 Y116.756 E.01413
M204 S1000
G1 X118.091 Y116.35 F10800
;WIPE_START
G1 F8640
G1 X118.489 Y116.647 E-.13157
G1 X119 Y116.644 E-.11789
G1 X119.503 Y116.728 E-.11789
G1 X119.986 Y116.895 E-.11789
G1 X120.433 Y117.142 E-.11789
G1 X120.832 Y117.461 E-.11789
G1 X120.944 Y117.587 E-.03897
;WIPE_END
G1 E-.04 F2100
G1 Z.6 F720
G1 X130.613 Y86.403 F10800
G1 Z.2 F720
G1 E.8 F2100
M204 S800
;TYPE:Perimeter
G1 F1200
G1 X130.865 Y85.979 E.01547
G1 X131.239 Y85.543 E.01801
G1 X131.68 Y85.176 E.01801
G1 X132.178 Y84.888 E.01801
G1 X132.717 Y84.689 E.01801
G1 X133.276 Y84.585 E.01785
G1 X133.86 Y84.577 E.01831
G1 X134.423 Y84.665 E.01785
G1 X134.967 Y84.849 E.01801
G1 X135.472 Y85.122 E.01801
G1 X135.924 Y85.476 E.01801
G1 X136.31 Y85.902 E.01801
G1 X136.618 Y86.387 E.01801
G1 X136.84 Y86.917 E.01801
G1 X136.969 Y87.476 E.01801
G1 X137.001 Y88.05 E.01801
G1 X136.936 Y88.621 E.01801
G1 X136.776 Y89.172 E.01801
G1 X136.525 Y89.688 E.01801
G1 X136.19 Y90.155 E.01801
G1 X135.781 Y90.558 E.01801
G1 X135.309 Y90.887 E.01801
G1 X134.789 Y91.131 E.01801
G1 X134.236 Y91.283 E.01801
G1 X133.664 Y91.34 E.01801
G1 X133.091 Y91.299 E.01801
G1 X132.533 Y91.163 E.01801
G1 X132.007 Y90.933 E.01801
G1 X131.526 Y90.619 E.01801
G1 X131.106 Y90.227 E.01801
G1 X130.758 Y89.77 E.01801
G1 X130.456 Y89.172 E.021
G1 X130.31 Y88.693 E.01569
G1 X130.235 Y88.146 E.01733
G1 X130.252 Y87.572 E.01801
