; generated by PrusaSlicer 2.5.0+win64 on 2023-07-10 at 14:05:33 UTC


;
;
; 

; external perimeters extrusion width = 0.45mm
; perimeters extrusion width = 0.45mm
; infill extrusion width = 0.45mm
; solid infill extrusion width = 0.45mm
; top infill extrusion width = 0.40mm
; first layer extrusion width = 0.42mm

; external perimeters extrusion width = 0.45mm
; perimeters extrusion width = 0.45mm
; infill extrusion width = 0.45mm
; solid infill extrusion width = 0.45mm
; top infill extrusion width = 0.40mm
; first layer extrusion width = 0.42mm

M73 P0 R93
M73 Q0 S93
M201 X1000 Y1000 Z200 E5000 ; sets maximum accelerations, mm/sec^2
M203 X200 Y200 Z12 E120 ; sets maximum feedrates, mm / sec
M204 P1250 R1250 T1250 ; sets acceleration (P, T) and retract acceleration (R), mm/sec^2
M205 X8.00 Y8.00 Z0.40 E4.50 ; sets the jerk limits, mm/sec
M205 S0 T0 ; sets the minimum extruding and travel feed rate, mm/sec
M107
;TYPE:Custom
M862.3 P "MK3" ; printer model check
M862.1 P0.4 ; nozzle diameter check
M115 U3.11.0 ; tell printer latest fw version
G90 ; use absolute coordinates
M83 ; extruder relative mode
M104 S255 ; set extruder temp
M140 S100 ; set bed temp
M190 S100 ; wait for bed temp
M109 S255 ; wait for extruder temp
G28 W ; home all without mesh bed level
G80 ; mesh bed leveling

G1 Z0.2 F720
G1 Y-3 F1000 ; go outside print area
G92 E0
G1 X60 E9 F1000 ; intro line
G1 X100 E12.5 F1000 ; intro line

G92 E0
M221 S95

; Don't change E values below. Excessive value can damage the printer.
M907 E430 ; set extruder motor current
G21 ; set units to millimeters
G90 ; use absolute coordinates
M83 ; use relative distances for extrusion
M900 K0.04 ; Filament gcode LA 1.5
M900 K20 ; Filament gcode LA 1.0
M107
;LAYER_CHANGE
;Z:0.2
;HEIGHT:0.2
;BEFORE_LAYER_CHANGE
G92 E0.0
;0.2


M73 P0 R92
G1 E-.8 F2100
G1 Z.4 F720
;AFTER_LAYER_CHANGE
;0.2
G1 X96.692 Y84.445 F10800
G1 Z.2 F720
G1 E.8 F2100
M204 S800
;TYPE:Skirt/Brim
;WIDTH:0.42
G1 F1200
G1 X97.593 Y83.594 E.03888
G1 X139.656 Y60.977 E1.4974
G1 X140.781 Y60.694 E.0364
G1 X150.781 Y60.694 E.31354
G1 X152.088 Y61.085 E.04278
G1 X152.778 Y61.781 E.03071
G1 X165.156 Y80.941 E.71521
G1 X166.391 Y83.085 E.07756
G1 X167.444 Y85.482 E.08211
G1 X168.22 Y87.983 E.08211
G1 X168.708 Y90.557 E.08212
G1 X168.901 Y93.168 E.08211
G1 X168.799 Y95.785 E.08211
G1 X168.401 Y98.373 E.08211
G1 X167.626 Y101.155 E.09053
G1 X166.628 Y103.576 E.08211
G1 X165.444 Y105.746 E.07751
G1 X153.308 Y125.555 E.72838
G1 X152.407 Y126.406 E.03888
G1 X110.344 Y149.023 E1.4974
G1 X109.219 Y149.306 E.0364
G1 X99.219 Y149.306 E.31354
G1 X97.912 Y148.915 E.04278
G1 X97.222 Y148.219 E.03071
G1 X84.844 Y129.059 E.71521
G1 X83.609 Y126.915 E.07756
G1 X82.556 Y124.518 E.08211
G1 X81.78 Y122.017 E.08211
G1 X81.292 Y119.444 E.08211
G1 X81.099 Y116.832 E.08211
G1 X81.201 Y114.215 E.08211
G1 X81.599 Y111.627 E.08211
G1 X82.374 Y108.845 E.09053
G1 X83.372 Y106.424 E.08211
G1 X84.556 Y104.254 E.07751
G1 X96.66 Y84.497 E.72649
M204 S1000
; printing object drum system hechting.STL id:0 copy 0
;WIPE_START
G1 F8640
G1 X97.593 Y83.594 E-.29973
G1 X99.349 Y82.65 E-.46027
;WIPE_END
G1 E-.04 F2100
G1 Z.6 F720
G1 X102.932 Y99.974 F10800
G1 Z.2 F720
G1 E.8 F2100
M204 S800
;TYPE:Perimeter
;WIDTH:0.419999
G1 F1200
G1 X101.431 Y100.13 E.04731
G1 X99.283 Y100.647 E.06926
G1 X97.292 Y101.414 E.0669
G1 X95.289 Y102.511 E.07163
G1 X93.513 Y103.827 E.0693
G1 X91.908 Y105.392 E.07029
G1 X90.564 Y107.102 E.06818
G1 X89.443 Y109.005 E.06926
G1 X88.586 Y111.038 E.06919
G1 X88.051 Y112.99 E.06345
G1 X88.006 Y113.173 E.00589
G1 X87.717 Y115.363 E.06926
G1 X87.722 Y117.572 E.06926
G1 X88.021 Y119.76 E.06926
G1 X88.61 Y121.889 E.06926
G1 X89.477 Y123.921 E.06926
G1 X90.607 Y125.819 E.06926
G1 X91.98 Y127.55 E.06926
G1 X93.571 Y129.082 E.06926
G1 X95.289 Y130.347 E.0669
G1 X97.224 Y131.413 E.06926
G1 X99.283 Y132.212 E.06926
G1 X101.554 Y132.748 E.07316
G1 X103.7 Y132.957 E.06759
G1 X105.918 Y132.878 E.0696
G1 X108.09 Y132.506 E.0691
G1 X110.197 Y131.847 E.06921
G1 X112.199 Y130.913 E.06926
G1 X113.997 Y129.765 E.0669
G1 X115.711 Y128.316 E.07037
G1 X116.993 Y126.906 E.05973
G1 X117.22 Y126.648 E.01077
G1 X118.466 Y124.824 E.06926
G1 X119.458 Y122.85 E.06926
G1 X120.177 Y120.762 E.06926
G1 X120.612 Y118.596 E.06926
G1 X120.755 Y116.392 E.06926
G1 X120.602 Y114.188 E.06926
G1 X120.335 Y112.872 E.0421
G1 X120.157 Y112.024 E.02716
G1 X119.428 Y109.939 E.06926
G1 X118.427 Y107.97 E.06926
G1 X117.22 Y106.211 E.0669
G1 X115.687 Y104.516 E.07163
G1 X113.997 Y103.094 E.06926
G1 X112.133 Y101.91 E.06926
G1 X110.127 Y100.984 E.06926
G1 X108.015 Y100.335 E.06926
G1 X105.915 Y99.98 E.06678
G1 X105.506 Y99.951 E.01287
G1 X105.506 Y86.474 E.42253
G1 X108.932 Y86.474 E.10741
G1 X108.932 Y94.96 E.26605
G1 X108.959 Y95.336 E.01184
G1 X109.051 Y95.756 E.01347
G1 X109.207 Y96.157 E.01347
G1 X109.422 Y96.529 E.01347
G1 X109.692 Y96.863 E.01347
G1 X110.01 Y97.152 E.01347
G1 X110.455 Y97.434 E.01652
G1 X112.887 Y98.448 E.08265
G1 X114.866 Y99.544 E.07091
G1 X116.707 Y100.856 E.07088
G1 X118.387 Y102.368 E.07088
G1 X119.886 Y104.06 E.07088
G1 X121.184 Y105.911 E.07088
G1 X122.265 Y107.897 E.07088
G1 X123.114 Y109.992 E.07088
G1 X123.717 Y112.158 E.07051
G1 X124.082 Y114.501 E.07432
G1 X124.179 Y116.661 E.0678
G1 X124.026 Y118.904 E.07051
G1 X123.617 Y121.14 E.07126
G1 X122.96 Y123.303 E.07088
G1 X122.062 Y125.378 E.07088
G1 X120.936 Y127.338 E.07088
G1 X119.595 Y129.158 E.07088
G1 X118.057 Y130.815 E.07088
G1 X116.342 Y132.288 E.07088
G1 X114.471 Y133.557 E.07088
G1 X112.468 Y134.607 E.07091
G1 X110.007 Y135.567 E.08285
G1 X109.619 Y135.794 E.01407
G1 X109.282 Y136.073 E.01372
G1 X108.94 Y136.472 E.0165
G1 X108.668 Y136.966 E.01766
G1 X108.474 Y137.595 E.02066
G1 X108.432 Y138.067 E.01484
G1 X108.432 Y146.142 E.2532
G1 X100.006 Y146.142 E.26419
G1 X100.006 Y138.067 E.2532
G1 X99.977 Y137.683 E.01206
G1 X99.881 Y137.255 E.01376
G1 X99.68 Y136.77 E.01646
G1 X99.33 Y136.265 E.01926
G1 X98.89 Y135.846 E.01906
G1 X98.431 Y135.567 E.01684
G1 X95.969 Y134.607 E.08285
G1 X93.966 Y133.557 E.07091
G1 X92.095 Y132.288 E.07088
G1 X90.38 Y130.815 E.07088
G1 X88.842 Y129.158 E.07088
G1 X87.501 Y127.338 E.07088
G1 X86.375 Y125.378 E.07088
G1 X85.482 Y123.314 E.07051
G1 X84.821 Y121.14 E.07126
G1 X84.413 Y118.916 E.07088
G1 X84.258 Y116.661 E.07088
G1 X84.36 Y114.402 E.07088
G1 X84.717 Y112.17 E.07088
G1 X85.323 Y109.992 E.07088
G1 X86.172 Y107.897 E.07088
G1 X87.253 Y105.911 E.07088
G1 X88.551 Y104.06 E.07088
G1 X90.042 Y102.377 E.07051
G1 X91.731 Y100.856 E.07126
G1 X93.572 Y99.544 E.07088
G1 X95.55 Y98.448 E.07091
G1 X97.983 Y97.434 E.08265
G1 X98.358 Y97.204 E.01379
G1 X98.685 Y96.925 E.01347
G1 X98.965 Y96.6 E.01347
G1 X99.192 Y96.235 E.01347
G1 X99.36 Y95.839 E.01347
G1 X99.465 Y95.423 E.01347
G1 X99.506 Y94.96 E.01457
G1 X99.506 Y86.474 E.26605
G1 X102.932 Y86.474 E.10741
G1 X102.932 Y99.914 E.42138
M204 S1000
G1 X103.309 Y100.315 F10800
M204 S800
;TYPE:External perimeter
G1 F1200
G1 X101.518 Y100.496 E.05642
G1 X99.419 Y100.999 E.06769
G1 X97.428 Y101.765 E.0669
G1 X95.515 Y102.813 E.06838
G1 X93.775 Y104.097 E.06779
G1 X92.204 Y105.626 E.06874
G1 X90.889 Y107.294 E.06661
G1 X89.79 Y109.152 E.06769
G1 X88.949 Y111.14 E.06766
G1 X88.415 Y113.09 E.0634
G1 X88.38 Y113.223 E.00431
G1 X88.094 Y115.363 E.06769
G1 X88.096 Y117.521 E.06769
G1 X88.385 Y119.661 E.06769
G1 X88.957 Y121.742 E.06769
G1 X89.8 Y123.727 E.06761
G1 X90.903 Y125.585 E.06776
G1 X92.242 Y127.279 E.06769
G1 X93.795 Y128.778 E.06769
G1 X95.513 Y130.044 E.0669
G1 X97.405 Y131.083 E.06769
G1 X99.419 Y131.86 E.06769
G1 X101.592 Y132.372 E.07
G1 X103.687 Y132.58 E.06602
G1 X105.855 Y132.506 E.06802
G1 X107.979 Y132.146 E.06752
G1 X110.038 Y131.505 E.06764
G1 X111.996 Y130.595 E.06769
G1 X113.794 Y129.447 E.0669
G1 X115.484 Y128.013 E.06947
G1 X116.713 Y126.653 E.05748
G1 X116.909 Y126.435 E.0092
G1 X118.129 Y124.654 E.06769
G1 X119.101 Y122.726 E.06769
G1 X119.808 Y120.687 E.06769
G1 X120.236 Y118.571 E.06769
G1 X120.379 Y116.417 E.06769
G1 X120.233 Y114.263 E.06769
G1 X119.965 Y112.947 E.0421
G1 X119.801 Y112.148 E.02559
G1 X119.092 Y110.109 E.06769
G1 X118.116 Y108.183 E.06769
G1 X116.909 Y106.424 E.0669
G1 X115.444 Y104.804 E.06847
G1 X113.794 Y103.412 E.06769
G1 X111.974 Y102.252 E.06769
M73 Q0 S92
G1 X110.015 Y101.345 E.06769
G1 X107.953 Y100.707 E.06769
G1 X105.852 Y100.352 E.06678
G1 X105.129 Y100.303 E.02274
G1 X105.129 Y86.097 E.44542
G1 X109.309 Y86.097 E.13106
G1 X109.309 Y94.96 E.27787
G1 X109.335 Y95.307 E.01093
G1 X109.418 Y95.67 E.01165
G1 X109.556 Y96.015 E.01165
G1 X109.762 Y96.358 E.01256
G1 X110.175 Y96.795 E.01885
G1 X110.6 Y97.086 E.01613
G1 X113.052 Y98.108 E.0833
G1 X115.067 Y99.225 E.07223
G1 X116.943 Y100.562 E.07222
G1 X118.655 Y102.102 E.07222
G1 X120.183 Y103.826 E.07222
G1 X121.505 Y105.712 E.07222
G1 X122.606 Y107.736 E.07222
G1 X123.471 Y109.87 E.07222
G1 X124.086 Y112.078 E.07184
G1 X124.458 Y114.484 E.07633
G1 X124.557 Y116.665 E.06847
G1 X124.4 Y118.951 E.07184
G1 X123.984 Y121.229 E.0726
G1 X123.314 Y123.433 E.07222
G1 X122.4 Y125.547 E.07222
G1 X121.252 Y127.544 E.07222
G1 X119.886 Y129.399 E.07222
G1 X118.319 Y131.087 E.07222
G1 X116.571 Y132.588 E.07222
G1 X114.665 Y133.881 E.07222
G1 X112.625 Y134.95 E.07223
G1 X110.144 Y135.919 E.0835
G1 X109.816 Y136.116 E.01199
G1 X109.526 Y136.36 E.01187
G1 X109.261 Y136.67 E.0128
G1 X109.017 Y137.11 E.0158
G1 X108.841 Y137.684 E.0188
G1 X108.809 Y138.067 E.01206
G1 X108.809 Y146.519 E.26502
G1 X99.629 Y146.519 E.28783
G1 X99.629 Y138.067 E.26502
G1 X99.601 Y137.713 E.01114
G1 X99.515 Y137.344 E.01187
G1 X99.359 Y136.967 E.0128
G1 X99.043 Y136.511 E.0174
G1 X98.645 Y136.133 E.0172
G1 X98.293 Y135.919 E.01292
G1 X95.813 Y134.95 E.0835
G1 X93.772 Y133.881 E.07223
G1 X91.866 Y132.588 E.07222
G1 X90.118 Y131.087 E.07222
G1 X88.551 Y129.399 E.07222
G1 X87.185 Y127.544 E.07222
G1 X86.037 Y125.547 E.07222
G1 X85.128 Y123.444 E.07184
G1 X84.454 Y121.229 E.0726
G1 X84.038 Y118.963 E.07222
G1 X83.881 Y116.665 E.07222
G1 X83.984 Y114.364 E.07222
G1 X84.348 Y112.089 E.07222
G1 X84.966 Y109.87 E.07222
G1 X85.831 Y107.736 E.07222
G1 X86.932 Y105.712 E.07222
G1 X88.255 Y103.826 E.07222
G1 X89.774 Y102.111 E.07184
G1 X91.495 Y100.562 E.0726
G1 X93.37 Y99.225 E.07222
G1 X95.385 Y98.108 E.07223
G1 X97.837 Y97.086 E.0833
G1 X98.155 Y96.886 E.01176
G1 X98.436 Y96.642 E.01165
G1 X98.675 Y96.358 E.01165
G1 X98.868 Y96.041 E.01165
G1 X99.01 Y95.697 E.01165
G1 X99.098 Y95.336 E.01165
G1 X99.129 Y94.96 E.01184
G1 X99.129 Y86.097 E.27787
G1 X103.309 Y86.097 E.13106
G1 X103.309 Y100.255 E.44389
M204 S1000
G1 X102.934 Y100.173 F10800
;WIPE_START
G1 F8640
G1 X101.518 Y100.496 E-.41714
G1 X100.074 Y100.842 E-.34286
;WIPE_END
G1 E-.04 F2100
G1 Z.6 F720
G1 X120.061 Y104.507 F10800
G1 Z.2 F720
G1 E.8 F2100
M204 S800
;TYPE:Solid infill
;WIDTH:0.422734
G1 F1200
G1 X117.548 Y101.993 E.11228
G1 X116.529 Y101.077 E.04326
G1 X115.016 Y99.998 E.05871
G1 X120.629 Y105.612 E.25071
G1 X120.944 Y106.06 E.01732
G1 X121.425 Y106.945 E.03179
G1 X113.704 Y99.224 E.34483
G1 X112.764 Y98.703 E.03394
G1 X112.56 Y98.617 E.00699
G1 X122.041 Y108.098 E.42346
G1 X122.407 Y109.001 E.03077
G1 X111.313 Y97.907 E.49553
M204 S1000
;WIPE_START
G1 F8640
G1 X113.64 Y100.234 E-.76
;WIPE_END
G1 E-.04 F2100
G1 Z.6 F720
G1 X108.818 Y87.356 F10800
G1 Z.2 F720
G1 E.8 F2100
M204 S800
G1 F1200
G1 X108.22 Y86.757 E.02673
G1 X107.683 Y86.757 E.01696
G1 X108.649 Y87.723 E.04314
G1 X108.649 Y88.26 E.01696
G1 X107.146 Y86.757 E.06713
G1 X106.609 Y86.757 E.01696
G1 X108.649 Y88.797 E.09112
G1 X108.649 Y89.334 E.01696
G1 X106.072 Y86.757 E.11511
G1 X105.789 Y86.757 E.00894
G1 X105.789 Y87.011 E.00803
G1 X108.649 Y89.872 E.12775
G1 X108.649 Y90.409 E.01696
G1 X105.789 Y87.548 E.12775
G1 X105.789 Y88.086 E.01696
G1 X108.649 Y90.946 E.12775
G1 X108.649 Y91.483 E.01696
M73 P1 R92
M73 Q1 S92
G1 X105.789 Y88.623 E.12775
G1 X105.789 Y89.16 E.01696
G1 X108.649 Y92.02 E.12775
G1 X108.649 Y92.557 E.01696
G1 X105.789 Y89.697 E.12775
G1 X105.789 Y90.234 E.01696
G1 X108.649 Y93.094 E.12775
G1 X108.649 Y93.632 E.01696
G1 X105.789 Y90.771 E.12775
G1 X105.789 Y91.308 E.01696
G1 X108.649 Y94.169 E.12775
G1 X108.649 Y94.706 E.01696
G1 X105.789 Y91.846 E.12775
G1 X105.789 Y92.383 E.01696
G1 X108.866 Y95.46 E.13746
M204 S1000
;WIPE_START
G1 F8640
G1 X106.539 Y93.133 E-.76
;WIPE_END
G1 E-.04 F2100
G1 Z.6 F720
G1 X105.619 Y92.75 F10800
G1 Z.2 F720
G1 E.8 F2100
M204 S800
G1 F1200
G1 X108.833 Y95.964 E.14354
G1 X109 Y96.375 E.014
G1 X109.248 Y96.773 E.01483
G1 X109.537 Y97.112 E.01406
G1 X109.827 Y97.368 E.01223
G1 X110.222 Y97.631 E.01498
G1 X110.702 Y97.833 E.01645
G1 X122.773 Y109.905 E.53914
G1 X122.846 Y110.084 E.0061
G1 X123.012 Y110.681 E.01957
G1 X105.789 Y93.457 E.76926
G1 X105.789 Y93.994 E.01696
G1 X123.22 Y111.425 E.77852
G1 X123.427 Y112.17 E.02441
G1 X117.766 Y106.509 E.25282
G1 X117.445 Y106.039 E.01798
G1 X115.875 Y104.304 E.0739
G1 X114.187 Y102.881 E.06975
G1 X114.052 Y102.795 E.00504
G1 X105.789 Y94.531 E.36907
G1 X105.789 Y95.068 E.01696
G1 X112.568 Y101.848 E.30279
G1 X112.305 Y101.68 E.00983
M73 P1 R91
G1 X111.479 Y101.296 E.02877
G1 X105.789 Y95.606 E.25417
G1 X105.789 Y96.143 E.01696
G1 X110.476 Y100.83 E.20934
G1 X110.283 Y100.74 E.0067
G1 X109.652 Y100.544 E.02088
G1 X105.789 Y96.68 E.17257
G1 X105.789 Y97.217 E.01696
G1 X108.872 Y100.3 E.13771
G1 X108.104 Y100.07 E.02532
G1 X105.789 Y97.754 E.10342
G1 X105.789 Y98.291 E.01696
G1 X107.455 Y99.958 E.07445
G1 X106.807 Y99.847 E.02078
G1 X105.789 Y98.828 E.04548
G1 X105.789 Y99.365 E.01696
G1 X106.366 Y99.943 E.0258
M204 S1000
;WIPE_START
G1 F8640
G1 X105.789 Y99.365 E-.18866
G1 X105.789 Y98.828 E-.12403
G1 X106.807 Y99.847 E-.33255
G1 X107.297 Y99.931 E-.11476
;WIPE_END
G1 E-.04 F2100
G1 Z.6 F720
G1 X118.278 Y107.558 F10800
G1 Z.2 F720
G1 E.8 F2100
M204 S800
G1 F1200
G1 X123.536 Y112.816 E.23486
G1 X123.639 Y113.456 E.02046
G1 X119.359 Y109.176 E.19114
G1 X119.683 Y109.817 E.02267
G1 X119.801 Y110.155 E.01129
G1 X123.742 Y114.096 E.17602
G1 X123.795 Y114.431 E.01074
G1 X123.807 Y114.699 E.00845
G1 X120.086 Y110.978 E.1662
G1 X120.372 Y111.8 E.02751
G1 X123.833 Y115.261 E.15457
G1 X123.858 Y115.824 E.01778
G1 X120.551 Y112.517 E.1477
G1 X120.688 Y113.191 E.02172
G1 X123.884 Y116.386 E.14273
G1 X123.896 Y116.657 E.00858
G1 X123.878 Y116.918 E.00824
G1 X120.825 Y113.864 E.13637
G1 X120.886 Y114.168 E.0098
G1 X120.908 Y114.485 E.01002
G1 X123.844 Y117.421 E.13111
G1 X123.809 Y117.923 E.01592
G1 X120.947 Y115.061 E.12782
G1 X120.987 Y115.638 E.01825
G1 X123.775 Y118.426 E.12453
G1 X123.745 Y118.869 E.01402
G1 X123.735 Y118.923 E.00173
G1 X121.026 Y116.214 E.12097
G1 X121.038 Y116.395 E.00572
G1 X121.015 Y116.741 E.01094
G1 X123.652 Y119.377 E.11774
G1 X123.569 Y119.831 E.01458
G1 X120.982 Y117.244 E.11554
G1 X120.948 Y117.748 E.01593
G1 X123.485 Y120.285 E.11334
G1 X123.402 Y120.739 E.01458
G1 X120.914 Y118.251 E.11113
G1 X120.875 Y118.749 E.01578
G1 X123.308 Y121.182 E.10867
G1 X123.183 Y121.594 E.0136
G1 X120.784 Y119.195 E.10714
G1 X120.694 Y119.642 E.01439
G1 X123.058 Y122.006 E.1056
G1 X122.933 Y122.418 E.0136
G1 X120.603 Y120.088 E.10406
G1 X120.512 Y120.535 E.01439
G1 X122.808 Y122.83 E.10252
G1 X122.679 Y123.239 E.01353
G1 X120.405 Y120.965 E.10158
G1 X120.267 Y121.364 E.01334
G1 X122.517 Y123.614 E.10049
G1 X122.355 Y123.989 E.0129
G1 X120.129 Y121.763 E.0994
G1 X119.992 Y122.163 E.01334
G1 X122.193 Y124.364 E.09831
G1 X122.03 Y124.739 E.0129
G1 X119.854 Y122.562 E.09722
G1 X119.716 Y122.961 E.01334
G1 X121.868 Y125.114 E.09613
G1 X121.685 Y125.467 E.01258
G1 X119.54 Y123.323 E.09578
G1 X119.36 Y123.68 E.01263
G1 X121.489 Y125.808 E.09506
G1 X121.293 Y126.15 E.01243
G1 X119.18 Y124.037 E.09435
G1 X119 Y124.394 E.01262
G1 X121.097 Y126.491 E.09366
G1 X120.901 Y126.832 E.01243
G1 X118.819 Y124.75 E.09297
G1 X118.626 Y125.094 E.01246
G1 X120.699 Y127.183 E.09293
G1 X120.478 Y127.483 E.01177
G1 X118.407 Y125.412 E.09249
G1 X118.188 Y125.73 E.0122
G1 X120.25 Y127.793 E.0921
G1 X120.022 Y128.102 E.01213
G1 X117.969 Y126.048 E.09172
