; generated by PrusaSlicer 2.5.0+win64 on 2022-12-16 at 09:43:53 UTC


;
;
; 

; external perimeters extrusion width = 0.45mm
; perimeters extrusion width = 0.45mm
; infill extrusion width = 0.45mm
; solid infill extrusion width = 0.45mm
; top infill extrusion width = 0.40mm
; first layer extrusion width = 0.42mm

M73 P0 R102
M73 Q0 S103
M201 X1000 Y1000 Z200 E5000 ; sets maximum accelerations, mm/sec^2
M203 X200 Y200 Z12 E120 ; sets maximum feedrates, mm / sec
M204 P1250 R1250 T1250 ; sets acceleration (P, T) and retract acceleration (R), mm/sec^2
M205 X8.00 Y8.00 Z0.40 E4.50 ; sets the jerk limits, mm/sec
M205 S0 T0 ; sets the minimum extruding and travel feed rate, mm/sec
M107
;TYPE:Custom
M862.3 P "MK3" ; printer model check
M862.1 P0.4 ; nozzle diameter check
M115 U3.11.0 ; tell printer latest fw version
G90 ; use absolute coordinates
M83 ; extruder relative mode
M104 S215 ; set extruder temp
M140 S60 ; set bed temp
M190 S60 ; wait for bed temp
M109 S215 ; wait for extruder temp
G28 W ; home all without mesh bed level
G80 ; mesh bed leveling

G1 Z0.2 F720
G1 Y-3 F1000 ; go outside print area
G92 E0
G1 X60 E9 F1000 ; intro line
G1 X100 E12.5 F1000 ; intro line

G92 E0
M221 S95

; Don't change E values below. Excessive value can damage the printer.
M907 E430 ; set extruder motor current
G21 ; set units to millimeters
G90 ; use absolute coordinates
M83 ; use relative distances for extrusion
M900 K0.05 ; Filament gcode LA 1.5
M900 K30 ; Filament gcode LA 1.0
M107
;LAYER_CHANGE
;Z:0.2
;HEIGHT:0.2
;BEFORE_LAYER_CHANGE
G92 E0.0
;0.2


G1 E-.8 F2100
M73 Q0 S102
G1 Z.4 F720
;AFTER_LAYER_CHANGE
;0.2
G1 X103.253 Y58.432 F10800
G1 Z.2 F720
G1 E.8 F2100
M204 S800
;TYPE:Skirt/Brim
;WIDTH:0.42
G1 F1200
G1 X105.04 Y57.623 E.06151
G1 X145.04 Y57.623 E1.25417
G1 X146.347 Y58.015 E.04278
G1 X147.395 Y59.678 E.06164
G1 X153.141 Y101.711 E1.33018
G1 X153.333 Y105.144 E.10782
G1 X153.106 Y108.576 E.10782
G1 X152.535 Y111.674 E.09878
G1 X151.522 Y114.96 E.10783
G1 X136.227 Y150.931 E1.22554
G1 X135.355 Y151.98 E.04278
G1 X134.04 Y152.377 E.04307
G1 X116.04 Y152.377 E.56438
G1 X114.733 Y151.985 E.04278
G1 X113.855 Y150.935 E.04293
G1 X98.569 Y115.221 E1.21805
G1 X97.539 Y111.98 E.10662
G1 X96.895 Y108.589 E.10823
G1 X96.667 Y105.145 E.10823
G1 X96.878 Y101.516 E.11396
G1 X102.686 Y59.673 E1.32453
G1 X103.228 Y58.487 E.0409
M204 S1000
; printing object bearingHolderDrum.STL id:0 copy 0
;WIPE_START
M73 P0 R101
G1 F8640
G1 X105.04 Y57.623 E-.46351
G1 X106.324 Y57.623 E-.29649
;WIPE_END
G1 E-.04 F2100
G1 Z.6 F720
G1 X133.771 Y69.217 F10800
G1 Z.2 F720
G1 E.8 F2100
M204 S800
;TYPE:Perimeter
;WIDTH:0.419999
G1 F1200
G1 X133.725 Y69.221 E.00144
G1 X133.479 Y69.326 E.0084
G1 X133.326 Y69.501 E.00728
G1 X133.253 Y69.779 E.009
G1 X133.258 Y80.915 E.34916
G1 X133.371 Y81.184 E.00915
G1 X133.59 Y81.355 E.00871
G1 X136.561 Y82.665 E.1018
G1 X139.186 Y84.228 E.09577
G1 X141.601 Y86.097 E.09577
G1 X143.772 Y88.246 E.09577
G1 X145.666 Y90.642 E.09577
G1 X147.256 Y93.251 E.09577
G1 X148.517 Y96.033 E.09577
G1 X149.432 Y98.947 E.09577
G1 X149.94 Y101.7 E.08778
G1 X150.001 Y102.206 E.01596
G1 X150.171 Y105 E.08778
G1 X149.986 Y108.049 E.09577
G1 X149.432 Y111.053 E.09577
G1 X148.517 Y113.967 E.09577
G1 X147.256 Y116.749 E.09577
G1 X145.666 Y119.358 E.09577
G1 X143.772 Y121.754 E.09577
G1 X141.601 Y123.903 E.09577
G1 X139.186 Y125.772 E.09577
G1 X136.561 Y127.335 E.09577
G1 X133.59 Y128.645 E.1018
G1 X133.427 Y128.754 E.00615
G1 X133.302 Y128.932 E.00681
G1 X133.253 Y129.163 E.0074
G1 X133.253 Y149.213 E.62866
G1 X126.827 Y149.213 E.20148
G1 X126.827 Y121.652 E.86416
G1 X128.754 Y121.37 E.06106
G1 X131.282 Y120.582 E.08302
G1 X133.655 Y119.407 E.08302
G1 X135.813 Y117.873 E.08302
G1 X137.644 Y116.086 E.08023
G1 X139.279 Y113.89 E.08585
G1 X140.511 Y111.506 E.08412
G1 X141.314 Y109.116 E.07907
G1 X141.701 Y106.849 E.0721
G1 X141.766 Y106.417 E.01371
G1 X141.787 Y103.858 E.08023
G1 X141.38 Y101.154 E.08575
G1 X140.571 Y98.631 E.08308
G1 X139.376 Y96.268 E.08302
G1 X137.824 Y94.121 E.08306
G1 X135.992 Y92.283 E.08137
G1 X133.814 Y90.689 E.08461
G1 X131.537 Y89.522 E.08023
G1 X128.935 Y88.672 E.08581
G1 X126.319 Y88.263 E.08302
G1 X123.672 Y88.27 E.08302
G1 X121.058 Y88.693 E.08302
G1 X119.519 Y89.196 E.05077
G1 X118.543 Y89.522 E.03224
G1 X116.19 Y90.736 E.08302
G1 X114.062 Y92.301 E.08284
G1 X112.198 Y94.19 E.0832
G1 X110.658 Y96.344 E.08302
G1 X109.509 Y98.631 E.08023
G1 X108.695 Y101.19 E.0842
G1 X108.403 Y103.084 E.0601
G1 X108.293 Y103.858 E.02452
G1 X108.322 Y106.506 E.08302
G1 X108.766 Y109.116 E.08302
G1 X109.616 Y111.623 E.08302
G1 X110.849 Y113.966 E.08302
G1 X112.377 Y116.019 E.08023
G1 X114.336 Y117.93 E.08581
G1 X116.502 Y119.453 E.08302
G1 X118.798 Y120.582 E.08023
G1 X121.326 Y121.37 E.08302
G1 X123.253 Y121.652 E.06106
G1 X123.253 Y149.213 E.86416
G1 X116.827 Y149.213 E.20148
G1 X116.827 Y129.248 E.62598
G1 X116.814 Y129.127 E.00382
G1 X116.719 Y128.916 E.00727
G1 X116.489 Y128.73 E.00925
G1 X113.505 Y127.418 E.1022
G1 X110.868 Y125.851 E.09617
G1 X108.441 Y123.976 E.09617
G1 X106.26 Y121.82 E.09617
G1 X104.356 Y119.415 E.09617
G1 X102.759 Y116.797 E.09617
G1 X101.491 Y114.004 E.09617
G1 X100.572 Y111.078 E.09617
G1 X100.015 Y108.061 E.09617
G1 X99.829 Y105 E.09617
G1 X100.015 Y101.939 E.09617
G1 X100.572 Y98.922 E.09617
G1 X101.491 Y95.996 E.09617
G1 X102.759 Y93.203 E.09617
G1 X104.356 Y90.585 E.09617
G1 X106.26 Y88.18 E.09617
G1 X108.441 Y86.024 E.09617
G1 X110.868 Y84.149 E.09617
G1 X113.505 Y82.582 E.09617
G1 X116.572 Y81.225 E.10515
G1 X116.755 Y81.029 E.00839
G1 X116.827 Y80.752 E.00897
G1 X116.827 Y69.779 E.34406
G1 X116.818 Y69.678 E.00318
G1 X116.715 Y69.44 E.00813
G1 X116.528 Y69.28 E.00771
G1 X116.262 Y69.213 E.00862
G1 X105.827 Y69.213 E.32716
G1 X105.827 Y60.787 E.26419
G1 X144.253 Y60.787 E1.20481
G1 X144.253 Y69.213 E.26419
G1 X133.831 Y69.213 E.32679
M204 S1000
G1 X133.819 Y69.59 F10800
M204 S800
;TYPE:External perimeter
G1 F1200
G1 X133.685 Y69.646 E.00456
G1 X133.63 Y69.779 E.00449
G1 X133.642 Y80.903 E.34879
G1 X133.743 Y81.01 E.0046
G1 X136.734 Y82.329 E.10252
G1 X139.398 Y83.915 E.09721
G1 X141.85 Y85.813 E.09721
G1 X144.054 Y87.994 E.09721
G1 X145.976 Y90.427 E.09721
G1 X147.59 Y93.074 E.09721
G1 X148.87 Y95.898 E.09721
G1 X149.798 Y98.856 E.09721
G1 X150.31 Y101.632 E.0885
G1 X150.378 Y102.183 E.0174
G1 X150.549 Y105 E.0885
G1 X150.361 Y108.095 E.09721
G1 X149.798 Y111.144 E.09721
G1 X148.87 Y114.102 E.09721
G1 X147.59 Y116.926 E.09721
G1 X145.976 Y119.573 E.09721
G1 X144.054 Y122.006 E.09721
G1 X141.85 Y124.187 E.09721
G1 X139.398 Y126.085 E.09721
G1 X136.734 Y127.671 E.09721
G1 X133.688 Y129.027 E.10454
G1 X133.63 Y129.163 E.00464
G1 X133.63 Y149.59 E.64048
G1 X126.45 Y149.59 E.22512
G1 X126.45 Y121.324 E.88624
G1 X128.643 Y121.01 E.06946
G1 X131.115 Y120.244 E.08116
G1 X133.437 Y119.099 E.08116
G1 X135.549 Y117.603 E.08116
G1 X137.381 Y115.816 E.08023
G1 X138.944 Y113.716 E.0821
G1 X140.153 Y111.386 E.08229
G1 X140.963 Y108.97 E.07991
G1 X141.329 Y106.787 E.06941
G1 X141.389 Y106.414 E.01185
G1 X141.41 Y103.855 E.08023
G1 X141.021 Y101.269 E.082
G1 X140.234 Y98.8 E.08124
G1 X139.462 Y97.264 E.05388
G1 X139.07 Y96.488 E.02728
G1 X137.556 Y94.387 E.08117
G1 X135.725 Y92.549 E.08137
G1 X133.642 Y91.025 E.08092
G1 X131.337 Y89.846 E.08116
G1 X128.876 Y89.045 E.08116
G1 X126.319 Y88.64 E.08116
G1 X123.731 Y88.642 E.08116
G1 X121.175 Y89.052 E.08116
G1 X119.636 Y89.554 E.05077
G1 X118.715 Y89.858 E.03038
G1 X116.413 Y91.041 E.08116
G1 X114.327 Y92.569 E.0811
G1 X112.504 Y94.41 E.08122
G1 X110.995 Y96.513 E.08116
G1 X109.846 Y98.8 E.08023
G1 X109.055 Y101.303 E.08231
G1 X108.775 Y103.14 E.05826
G1 X108.67 Y103.855 E.02266
G1 X108.694 Y106.443 E.08116
G1 X109.124 Y108.996 E.08116
G1 X109.95 Y111.449 E.08116
G1 X111.152 Y113.741 E.08116
G1 X112.68 Y115.794 E.08023
G1 X114.554 Y117.622 E.08209
G1 X116.669 Y119.114 E.08116
G1 X118.965 Y120.244 E.08023
G1 X121.437 Y121.01 E.08116
G1 X123.63 Y121.324 E.06946
G1 X123.63 Y149.59 E.88624
G1 X116.45 Y149.59 E.22512
G1 X116.45 Y129.248 E.63781
G1 X116.433 Y129.17 E.0025
G1 X116.337 Y129.076 E.00422
G1 X113.333 Y127.754 E.10292
G1 X110.656 Y126.164 E.09761
G1 X108.193 Y124.261 E.09761
G1 X105.978 Y122.072 E.09761
G1 X104.046 Y119.631 E.09761
G1 X102.425 Y116.974 E.09761
G1 X101.138 Y114.139 E.09761
G1 X100.205 Y111.169 E.09761
G1 X99.64 Y108.107 E.09761
G1 X99.451 Y105 E.09761
G1 X99.64 Y101.893 E.09761
G1 X100.205 Y98.831 E.09761
G1 X101.138 Y95.861 E.09761
G1 X102.425 Y93.026 E.09761
G1 X104.046 Y90.369 E.09761
G1 X105.978 Y87.928 E.09761
G1 X108.193 Y85.739 E.09761
G1 X110.656 Y83.836 E.09761
G1 X113.333 Y82.246 E.09761
G1 X116.389 Y80.891 E.10484
G1 X116.45 Y80.752 E.00474
G1 X116.45 Y69.779 E.34406
G1 X116.396 Y69.646 E.00449
G1 X116.262 Y69.59 E.00456
G1 X105.45 Y69.59 E.33899
G1 X105.45 Y60.41 E.28783
G1 X144.63 Y60.41 E1.22846
M73 P1 R101
G1 X144.63 Y69.59 E.28783
M73 Q1 S102
G1 X133.879 Y69.59 E.3371
M204 S1000
M73 Q1 S101
G1 X133.695 Y69.514 F10800
;WIPE_START
G1 F8640
G1 X133.685 Y69.646 E-.04664
G1 X133.63 Y69.779 E-.03309
G1 X133.633 Y72.725 E-.68027
;WIPE_END
G1 E-.04 F2100
G1 Z.6 F720
G1 X145.87 Y91.194 F10800
G1 Z.2 F720
G1 E.8 F2100
M204 S800
;TYPE:Solid infill
;WIDTH:0.420942
G1 F1200
G1 X139.521 Y84.845 E.28225
G1 X139.026 Y84.462 E.01965
G1 X137.981 Y83.84 E.03823
G1 X146.195 Y92.054 E.36515
G1 X147.018 Y93.411 E.04989
G1 X136.66 Y83.053 E.46046
G1 X136.431 Y82.917 E.00837
G1 X135.634 Y82.562 E.02741
G1 X147.462 Y94.389 E.52574
G1 X147.905 Y95.367 E.03375
G1 X134.337 Y81.799 E.60315
M204 S1000
;WIPE_START
G1 F8640
G1 X136.664 Y84.126 E-.76
;WIPE_END
G1 E-.04 F2100
G1 Z.6 F720
G1 X144.14 Y61.664 F10800
G1 Z.2 F720
G1 E.8 F2100
M204 S800
G1 F1200
G1 X143.545 Y61.07 E.02643
G1 X143.011 Y61.07 E.0168
G1 X143.97 Y62.029 E.04265
G1 X143.97 Y62.564 E.0168
G1 X142.476 Y61.07 E.06642
G1 X141.941 Y61.07 E.0168
G1 X143.97 Y63.099 E.09018
G1 X143.97 Y63.633 E.0168
G1 X141.407 Y61.07 E.11395
G1 X140.872 Y61.07 E.0168
G1 X143.97 Y64.168 E.13771
G1 X143.97 Y64.702 E.0168
G1 X140.338 Y61.07 E.16147
G1 X139.803 Y61.07 E.0168
G1 X143.97 Y65.237 E.18524
G1 X143.97 Y65.772 E.0168
G1 X139.268 Y61.07 E.209
G1 X138.734 Y61.07 E.0168
G1 X143.97 Y66.306 E.23277
G1 X143.97 Y66.841 E.0168
G1 X138.199 Y61.07 E.25653
G1 X137.665 Y61.07 E.0168
G1 X143.97 Y67.375 E.2803
G1 X143.97 Y67.91 E.0168
G1 X137.13 Y61.07 E.30406
G1 X136.595 Y61.07 E.0168
G1 X143.97 Y68.445 E.32783
G1 X143.97 Y68.93 E.01526
G1 X143.921 Y68.93 E.00154
G1 X136.061 Y61.07 E.34941
G1 X135.526 Y61.07 E.0168
G1 X143.386 Y68.93 E.34941
G1 X142.852 Y68.93 E.0168
G1 X134.992 Y61.07 E.34941
G1 X134.457 Y61.07 E.0168
G1 X142.317 Y68.93 E.34941
G1 X141.783 Y68.93 E.0168
G1 X133.922 Y61.07 E.34941
G1 X133.388 Y61.07 E.0168
G1 X141.248 Y68.93 E.34941
G1 X140.713 Y68.93 E.0168
G1 X132.853 Y61.07 E.34941
G1 X132.319 Y61.07 E.0168
G1 X140.179 Y68.93 E.34941
G1 X139.644 Y68.93 E.0168
G1 X131.784 Y61.07 E.34941
G1 X131.249 Y61.07 E.0168
M73 P1 R100
G1 X139.11 Y68.93 E.34941
G1 X138.575 Y68.93 E.0168
G1 X130.715 Y61.07 E.34941
G1 X130.18 Y61.07 E.0168
G1 X138.04 Y68.93 E.34941
G1 X137.506 Y68.93 E.0168
G1 X129.646 Y61.07 E.34941
G1 X129.111 Y61.07 E.0168
G1 X136.971 Y68.93 E.34941
G1 X136.437 Y68.93 E.0168
G1 X128.576 Y61.07 E.34941
G1 X128.042 Y61.07 E.0168
G1 X135.902 Y68.93 E.34941
G1 X135.367 Y68.93 E.0168
G1 X127.507 Y61.07 E.34941
G1 X126.973 Y61.07 E.0168
G1 X134.833 Y68.93 E.34941
G1 X134.298 Y68.93 E.0168
G1 X126.438 Y61.07 E.34941
G1 X125.903 Y61.07 E.0168
G1 X133.768 Y68.934 E.34959
G1 X133.669 Y68.943 E.00313
G1 X133.418 Y69.029 E.00832
G1 X133.367 Y69.068 E.00203
G1 X125.369 Y61.07 E.35553
G1 X124.834 Y61.07 E.0168
G1 X133.099 Y69.335 E.36739
G1 X133.003 Y69.544 E.00723
G1 X132.974 Y69.744 E.00638
G1 X124.3 Y61.07 E.3856
G1 X123.765 Y61.07 E.0168
G1 X132.97 Y70.275 E.40921
G1 X132.971 Y70.81 E.01681
G1 X123.23 Y61.07 E.43299
G1 X122.696 Y61.07 E.0168
G1 X132.971 Y71.345 E.45677
G1 X132.972 Y71.88 E.01681
G1 X122.161 Y61.07 E.48055
G1 X121.627 Y61.07 E.0168
G1 X132.972 Y72.415 E.50433
G1 X132.972 Y72.95 E.01681
G1 X121.092 Y61.07 E.52811
G1 X120.557 Y61.07 E.0168
G1 X132.973 Y73.485 E.55189
G1 X132.973 Y74.02 E.01681
G1 X120.023 Y61.07 E.57567
G1 X119.488 Y61.07 E.0168
G1 X132.973 Y74.555 E.59945
G1 X132.974 Y75.09 E.01681
G1 X118.954 Y61.07 E.62323
G1 X118.419 Y61.07 E.0168
G1 X132.974 Y75.625 E.64701
G1 X132.974 Y76.16 E.01681
G1 X117.884 Y61.07 E.67079
G1 X117.35 Y61.07 E.0168
G1 X132.975 Y76.695 E.69457
G1 X132.975 Y77.23 E.01681
G1 X116.815 Y61.07 E.71835
G1 X116.28 Y61.07 E.0168
G1 X132.975 Y77.765 E.74212
G1 X132.976 Y78.3 E.01681
G1 X115.746 Y61.07 E.7659
G1 X115.211 Y61.07 E.0168
G1 X132.976 Y78.835 E.78968
G1 X132.976 Y79.369 E.01681
G1 X114.677 Y61.07 E.81346
G1 X114.142 Y61.07 E.0168
G1 X132.977 Y79.904 E.83724
G1 X132.977 Y80.439 E.01681
G1 X113.607 Y61.07 E.86102
G1 X113.073 Y61.07 E.0168
G1 X148.305 Y96.302 E1.56617
G1 X148.55 Y97.081 E.02566
G1 X112.538 Y61.07 E1.6008
G1 X112.004 Y61.07 E.0168
G1 X148.794 Y97.86 E1.63543
G1 X149.039 Y98.639 E.02566
G1 X111.469 Y61.07 E1.67006
G1 X110.934 Y61.07 E.0168
G1 X149.219 Y99.355 E1.70185
G1 X149.34 Y100.01 E.02095
G1 X110.4 Y61.07 E1.73099
G1 X109.865 Y61.07 E.0168
M73 P2 R100
M73 Q2 S100
G1 X149.461 Y100.666 E1.76013
G1 X149.582 Y101.321 E.02095
G1 X109.331 Y61.07 E1.78927
G1 X108.796 Y61.07 E.0168
G1 X149.703 Y101.977 E1.81841
G1 X149.739 Y102.547 E.01796
G1 X117.11 Y69.918 E1.45044
G1 X117.11 Y69.772 E.0046
G1 X117.078 Y69.544 E.00725
G1 X117.001 Y69.361 E.00622
G1 X116.865 Y69.181 E.0071
G1 X116.662 Y69.029 E.00797
G1 X116.412 Y68.943 E.00832
G1 X116.122 Y68.93 E.00912
G1 X108.261 Y61.07 E.34941
G1 X107.727 Y61.07 E.0168
G1 X115.587 Y68.93 E.34941
G1 X115.052 Y68.93 E.0168
G1 X107.192 Y61.07 E.34941
G1 X106.658 Y61.07 E.0168
G1 X114.518 Y68.93 E.34941
G1 X113.983 Y68.93 E.0168
G1 X106.123 Y61.07 E.34941
G1 X106.11 Y61.07 E.00041
G1 X106.11 Y61.591 E.01639
G1 X113.449 Y68.93 E.32622
M73 P2 R99
G1 X112.914 Y68.93 E.0168
G1 X106.11 Y62.126 E.30246
G1 X106.11 Y62.661 E.0168
G1 X112.379 Y68.93 E.2787
G1 X111.845 Y68.93 E.0168
G1 X106.11 Y63.195 E.25493
G1 X106.11 Y63.73 E.0168
G1 X111.31 Y68.93 E.23117
G1 X110.776 Y68.93 E.0168
G1 X106.11 Y64.264 E.2074
G1 X106.11 Y64.799 E.0168
G1 X110.241 Y68.93 E.18364
G1 X109.706 Y68.93 E.0168
G1 X106.11 Y65.334 E.15987
G1 X106.11 Y65.868 E.0168
G1 X109.172 Y68.93 E.13611
G1 X108.637 Y68.93 E.0168
G1 X106.11 Y66.403 E.11234
G1 X106.11 Y66.937 E.0168
G1 X108.103 Y68.93 E.08858
G1 X107.568 Y68.93 E.0168
G1 X106.11 Y67.472 E.06482
G1 X106.11 Y68.007 E.0168
G1 X107.033 Y68.93 E.04105
G1 X106.499 Y68.93 E.0168
G1 X105.94 Y68.372 E.02483
M204 S1000
;WIPE_START
G1 F8640
G1 X106.499 Y68.93 E-.18239
G1 X107.033 Y68.93 E-.12344
G1 X106.11 Y68.007 E-.30156
G1 X106.11 Y67.472 E-.12344
G1 X106.199 Y67.561 E-.02917
;WIPE_END
G1 E-.04 F2100
G1 Z.6 F720
G1 X116.94 Y70.283 F10800
G1 Z.2 F720
G1 E.8 F2100
M204 S800
G1 F1200
G1 X149.773 Y103.116 E1.45953
G1 X149.808 Y103.686 E.01793
G1 X117.109 Y70.987 E1.45355
G1 X117.109 Y71.521 E.01679
G1 X149.843 Y104.255 E1.45511
G1 X149.877 Y104.824 E.01793
G1 X117.108 Y72.055 E1.45667
G1 X117.108 Y72.589 E.01679
G1 X149.867 Y105.348 E1.45622
G1 X149.836 Y105.852 E.01587
G1 X117.107 Y73.124 E1.45487
G1 X117.107 Y73.658 E.01679
G1 X133.85 Y90.401 E.74427
G1 X132.753 Y89.838 E.03875
G1 X117.107 Y74.192 E.69553
G1 X117.106 Y74.726 E.01679
G1 X131.656 Y89.276 E.64678
G1 X131.549 Y89.221 E.00378
G1 X130.834 Y88.988 E.02365
G1 X117.106 Y75.26 E.61024
G1 X117.105 Y75.795 E.01679
G1 X130.041 Y88.73 E.57501
G1 X129.248 Y88.472 E.02621
G1 X117.105 Y76.329 E.53979
G1 X117.105 Y76.863 E.01679
G1 X128.572 Y88.33 E.50975
G1 X127.936 Y88.229 E.02023
G1 X117.104 Y77.397 E.48151
G1 X117.104 Y77.931 E.01679
G1 X127.301 Y88.128 E.45327
G1 X126.665 Y88.027 E.02023
G1 X117.103 Y78.466 E.42502
G1 X117.103 Y79 E.01679
G1 X126.085 Y87.982 E.39928
G1 X125.551 Y87.982 E.0168
G1 X117.103 Y79.534 E.37554
G1 X117.102 Y80.068 E.01679
G1 X125.016 Y87.982 E.35179
G1 X124.482 Y87.982 E.0168
G1 X117.102 Y80.602 E.32804
